!!!!SEGMENT: pl-sa--274-a-vii-34--002_zajaczkowski-roman--mittit-ad-virginem.krn
!!!cenid: 17xx:359
!!!COM: Zajączkowski, Roman
!!!COM-rismID: pe41012326
!!!CDT: 1661-1710
!!!CNT: Polish
!!!OTL: Mittit ad Virginem
!!!PDT: 1710
!!!AGN: Sacred
!!!SMS-siglum: PL-SA
!!!SMS-shelfmark: 274/ A VII 34
!!!SMS-shelfwork: 002 W
!!!NIFC-rismSourceID: 1001092585
!!!NIFC-islandoraID:
!!!URL-pdf-islandora:
!!!URL-scan: https://bc.bdsandomierz.pl/dlibra/publication/1757/edition/1725/content @EN{Scan on Cyfrowa Biblioteka Diecezjalna w Sandomierzu} @PL{Skany w portalu Cyfrowa Biblioteka Diecezjalna w Sandomierzu}
!!!ONB-nifc: UWAGA: części: Rorate caeli, Mittit ad virginem
!!!AIN: 1 alto 1 empty 1 organ 1 tenor 2 vox
!!!key:
**kern	**fba	**kern	**text	**kern	**text	**kern	**text	**kern	**text	**kern	**text
*part6	*part6	*part5	*part5	*part4	*part4	*part3	*part3	*part2	*part2	*part1	*part1
*staff6	*staff6	*staff5	*staff5	*staff4	*staff4	*staff3	*staff3	*staff2	*staff2	*staff1	*staff1
*group2	*	*group1	*	*group1	*	*group1	*	*group1	*	*group1	*
*Iorgan	*	*Iempty	*	*Itenor	*	*Ialto	*	*Ivox	*	*Ivox	*
*I"[Organo]	*	*I"[Basso]	*	*I"[Tenore]	*	*I"[Alto]	*	*I"Canto Secundo	*	*I"[Canto 1]	*
*I'org	*	*I'B	*	*I'T	*	*I'A	*	*I'C II	*	*I'C I	*
*clefF4	*	*clefF4	*	*clefC4	*	*clefC3	*	*clefC1	*	*clefC1	*
*k[]	*	*k[]	*	*k[]	*	*k[]	*	*k[]	*	*k[]	*
*G:	*	*G:	*	*G:	*	*G:	*	*G:	*	*G:	*
*M3/4	*	*M3/4	*	*M3/4	*	*M3/4	*	*M3/4	*	*M3/4	*
*[ABCDEFGH]	*	*[ABCDEFGH]	*	*[ABCDEFGH]	*	*[ABCDEFGH]	*	*[ABCDEFGH]	*	*[ABCDEFGH]	*
=1	=1	=1	=1	=1	=1	=1	=1	=1	=1	=1	=1
*>A	*	*>A	*	*>A	*	*>A	*	*>A	*	*>A	*
!LO:TX:b:B:t=Mittit ad Virginem Cant&colon;	!	!LO:TX:a:B:t=Tacet	!	!LO:TX:a:B:t=Mittit ad Virginem\nTacet	!	!LO:TX:a:B:t=Tacet	!	!LO:TX:a:t=P:problem=all \right	!	!	!
4GG/	#	2.ryy	.	2.ryy	.	2.ryy	.	4b\	Mit-	4dd\	Mit-
8C/L	.	.	.	.	.	.	.	8cc\L	-tit	(8ee\L	-tit
8D/J	.	.	.	.	.	.	.	8b\J	.	8dd\J)	.
16E\LL	6	.	.	.	.	.	.	8a\L	ad	(8cc\L	ad
16F\J	.	.	.	.	.	.	.	.	.	.	.
!	!	!	!	!	!	!	!	!LO:TX:a:t=P:problem=brak kreski taktowej	!	!	!
8G\J	.	.	.	.	.	.	.	8g\J	.	8b\J)	.
=2	=2	=2	=2	=2	=2	=2	=2	=2-z	=2	=2	=2
4.D/	3	2.ryy	.	2.ryy	.	2.ryy	.	4.f#X/	Vir-	4.a\	Vir-
8D/	.	.	.	.	.	.	.	8f#/	-gi-	8a\	-gi-
4GG/	.	.	.	.	.	.	.	4g/	-nem	4g/	-nem
=3	=3	=3	=3	=3	=3	=3	=3	=3	=3	=3	=3
4BB/	6	2.ryy	.	2.ryy	.	2.ryy	.	4b\	non	4dd\	non
4AA/	#	.	.	.	.	.	.	4cc\	que(m)	4ee\	que(m)
!LO:TX:a:t=P:problem=brak kreski taktowej	!	!	!	!	!	!	!	!LO:TX:a:t=P:problem=brak kreski taktowej	!	!LO:TX:a:t=P:problem=brak kreski taktowej	!
4D/	.	.	.	.	.	.	.	4dd\	vis	4ff\	vis
=4-z	=4	=4	=4	=4	=4	=4	=4	=4-z	=4	=4-z	=4
4.AA/	#	2.ryy	.	2.ryy	.	2.ryy	.	4.cc#X\	An-	4.ee\	An-
8AA/	.	.	.	.	.	.	.	8cc#\	-ge-	8ee\	-ge-
4D/	.	.	.	.	.	.	.	4dd\	-lu(m)	4dd\	-lu(m)
=5	=5	=5	=5	=5	=5	=5	=5	=5	=5	=5	=5
4GG/	.	2.ryy	.	2.ryy	.	2.ryy	.	4b\	Sed	4dd\	Sed
4AA/	.	.	.	.	.	.	.	4a\	for-	4cc\	for-
!LO:TX:a:t=P:problem=brak kreski taktowej	!	!	!	!	!	!	!	!LO:TX:a:t=P:problem=brak kreski taktowej	!	!LO:TX:a:t=P:problem=brak kreski taktowej	!
4BB/	6	.	.	.	.	.	.	4g\	-ti-	4b\	-ti-
=6-z	=6	=6	=6	=6	=6	=6	=6	=6-z	=6	=6-z	=6
4.C/	.	2.ryy	.	2.ryy	.	2.ryy	.	4.cc\	-tu-	4.ee\	-tu-
8GG/	.	.	.	.	.	.	.	8b\	-di-	8dd\	-di-
4AA/	.	.	.	.	.	.	.	4a\	-nem	4cc\	-nem
=7	=7	=7	=7	=7	=7	=7	=7	=7	=7	=7	=7
4AA/	.	2.ryy	.	2.ryy	.	2.ryy	.	4a\	{Sed	4cc\	{Sed
4BB/	6	.	.	.	.	.	.	4g\	for-	4b\	for-
!LO:TX:a:t=P:problem=brak kreski taktowej	!	!	!	!	!	!	!	!LO:TX:a:t=P:problem=brak kreski taktowej	!	!LO:TX:a:t=P:problem=brak kreski taktowej	!
4C/	6	.	.	.	.	.	.	4a\	-ti-	4a\	-ti-
=8-z	=8	=8	=8	=8	=8	=8	=8	=8-z	=8	=8-z	=8
4.GG/	.	2.ryy	.	2.ryy	.	2.ryy	.	4.b\	-tu-	4.dd\	-tu-
8GG/	.	.	.	.	.	.	.	8a\	-di-	8cc\	-di-
4GG/	.	.	.	.	.	.	.	4g\	-nem}	4b\	-nem}
!LO:LB:g=original	!	!	!	!	!	!	!	!	!	!	!
=9	=9	=9	=9	=9	=9	=9	=9	=9	=9	=9	=9
4.G\	.	2.ryy	.	2.ryy	.	2.ryy	.	4b\	Su-	4dd\	Su-
.	.	.	.	.	.	.	.	8e\L	-um	(8g\L	-um
!	!	!	!	!	!	!	!	!LO:SIC:s=8f#:v	!	!	!
8F#X\	6	.	.	.	.	.	.	8f\J	.	8a\J)	.
!	!	!	!	!	!	!	!	!LO:LB:g=original	!	!	!
4E\	6	.	.	.	.	.	.	8g/L	Ar-	16b\LL	Ar-
.	.	.	.	.	.	.	.	.	.	16dd\	.
!	!	!	!	!	!	!	!	!LO:TX:a:t=P:problem=brak kreski taktowej	!	!	!
.	.	.	.	.	.	.	.	8a/J	.	16cc\	.
.	.	.	.	.	.	.	.	.	.	16b\JJ	.
=10-z	=10	=10	=10	=10	=10	=10	=10	=10-z	=10	=10	=10
*2\right	*	*	*	*	*	*	*	*	*	*	*
2D/	#	2.ryy	.	2.ryy	.	2.ryy	.	4.f#X/	-chan-	4.a\	-chan-
.	.	.	.	.	.	.	.	8f#/	-ge-	8a\	-ge-
4GG/	.	.	.	.	.	.	.	4g/	-lum	4g/	-lu(m)
!	!	!	!	!	!	!	!	!	!	!LO:LB:g=original	!
=11	=11	=11	=11	=11	=11	=11	=11	=11	=11	=11	=11
4G\	.	2.ryy	.	2.ryy	.	2.ryy	.	4g/	Su-	4b\	Su-
4F#X\	6	.	.	.	.	.	.	8f#X/L	-um	(8a\L	-um
.	.	.	.	.	.	.	.	8g/J	.	8b\J)	.
!LO:TX:a:t=P:problem=brak kreski taktowej	!	!	!	!	!	!	!	!	!	!	!
4E\	6	.	.	.	.	.	.	8a\L	Ar-	(8cc\L	Ar-
!	!	!	!	!	!	!	!	!LO:TX:a:t=P:problem=brak kreski taktowej	!	!	!
.	.	.	.	.	.	.	.	8g\J	.	8b\J)	.
=12-z	=12	=12	=12	=12	=12	=12	=12	=12-z	=12	=12	=12
2D\	#	2.ryy	.	2.ryy	.	2.ryy	.	4.f#X/	-chan-	4.a\	-chan-
.	.	.	.	.	.	.	.	8f#/	-ge-	8a\	-ge-
4GG/	.	.	.	.	.	.	.	8g/	-lum	8g\	-lu(m)
.	.	.	.	.	.	.	.	8g/	Ar-	8b\	Ar-
=13	=13	=13	=13	=13	=13	=13	=13	=13	=13	=13	=13
!LO:TX:a:t=P:problem=brak kreski taktowej	!	!	!	!	!	!	!	!LO:SIC:s=2f#:v	!	!	!
2.D/	#	2.ryy	.	2.ryy	.	2.ryy	.	2f/	-chan-	(4.a\	-chan-
.	.	.	.	.	.	.	.	.	.	8g\)	.
!	!	!	!	!	!	!	!	!LO:SIC:s=4f#:v	!	!	!
.	.	.	.	.	.	.	.	4f/	-ge-	8a\	-ge-
.	.	.	.	.	.	.	.	.	.	8b\	.
=14-z	=14	=14	=14	=14	=14	=14	=14	=14	=14	=14	=14
!LO:TX:a:t=P:problem=kreska taktowa pojedyncza	!	!	!	!	!	!	!	!	!	!	!
2.GG/	.	2.ryy	.	2.ryy	.	2.ryy	.	2.g/	-lum	2.g/	-lum.
=15|	=15||	=15||	=15||	=15||	=15||	=15||	=15||	=15||	=15||	=15||	=15||
*>B	*	*>B	*	*>B	*	*>B	*	*>B	*	*>B	*
*M2/2	*	*M2/2	*	*M2/2	*	*M2/2	*	*M2/2	*	*M2/2	*
*met(c|)	*	*met(c|)	*	*met(c|)	*	*met(c|)	*	*met(c|)	*	*met(c|)	*
*	*	*	*	*	*	*	*	*2\right	*	*	*
!LO:TX:b:t=Zdrowaś bądz Marija	!	!	!	!	!	!	!	!LO:TX:a:t=P:problem=część "Zdrowas bądz" znajduje się na ostatnich stronach źródła	!	!	!
!	!	!	!	!	!	!	!	!LO:TX:b:B:t=Zdrowaś bądz Marija	!	!	!
4.GG/	.	1ryy	.	1ryy	.	1ryy	.	2g\	.	1ryy	.
16BB/LL	.	.	.	.	.	.	.	.	.	.	.
16AA/JJ	.	.	.	.	.	.	.	.	.	.	.
8GG/L	.	.	.	.	.	.	.	2g\	.	.	.
8AA/	.	.	.	.	.	.	.	.	.	.	.
8BB/	.	.	.	.	.	.	.	.	.	.	.
16C/L	.	.	.	.	.	.	.	.	.	.	.
16D/JJ	.	.	.	.	.	.	.	.	.	.	.
=16	=16	=16	=16	=16	=16	=16	=16	=16	=16	=16	=16
!LO:TX:a:t=P:problem=mixed beam	!	!	!	!	!	!	!	!	!	!	!
8GG/L	.	1ryy	.	1ryy	.	1ryy	.	2b\	.	1ryy	.
16G\L	.	.	.	.	.	.	.	.	.	.	.
16F#X\JJ	.	.	.	.	.	.	.	.	.	.	.
4.E\	.	.	.	.	.	.	.	.	.	.	.
.	.	.	.	.	.	.	.	2cc\	.	.	.
16F#X\LL	6 4	.	.	.	.	.	.	.	.	.	.
16E\JJ	.	.	.	.	.	.	.	.	.	.	.
8D/L	# 7	.	.	.	.	.	.	.	.	.	.
8C#X/J	6	.	.	.	.	.	.	.	.	.	.
=17	=17	=17	=17	=17	=17	=17	=17	=17	=17	=17	=17
8D/L	#	1ryy	.	1ryy	.	1ryy	.	[2dd\	.	1ryy	.
8AA/J	# 6	.	.	.	.	.	.	.	.	.	.
4.BB/	.	.	.	.	.	.	.	.	.	.	.
.	.	.	.	.	.	.	.	2dd\]	.	.	.
16AA/LL	.	.	.	.	.	.	.	.	.	.	.
16GG/JJ	.	.	.	.	.	.	.	.	.	.	.
8FF#X/L	6	.	.	.	.	.	.	.	.	.	.
8AA/J	.	.	.	.	.	.	.	.	.	.	.
=18	=18	=18	=18	=18	=18	=18	=18	=18	=18	=18	=18
!LO:TX:a:t=P:problem=mixed beam	!	!	!	!	!	!	!	!	!	!	!
8D\L	.	1ryy	.	1ryy	.	1ryy	.	1dd	.	1ryy	.
16GG/L	.	.	.	.	.	.	.	.	.	.	.
16AA/JJ	.	.	.	.	.	.	.	.	.	.	.
8BB/L	6	.	.	.	.	.	.	.	.	.	.
8AA/J	.	.	.	.	.	.	.	.	.	.	.
4GG/	.	.	.	.	.	.	.	.	.	.	.
4D/	.	.	.	.	.	.	.	.	.	.	.
=19	=19	=19	=19	=19	=19	=19	=19	=19	=19	=19	=19
8C/L	.	1ryy	.	1ryy	.	1ryy	.	2ee\	.	1ryy	.
8BB/J	.	.	.	.	.	.	.	.	.	.	.
4.AA/	.	.	.	.	.	.	.	.	.	.	.
!	!	!	!	!	!	!	!	!LO:SIC:s=2ff#	!	!	!
.	6 4	.	.	.	.	.	.	2ff\	.	.	.
16D/LL	#	.	.	.	.	.	.	.	.	.	.
16C/JJ	.	.	.	.	.	.	.	.	.	.	.
8BB/L	.	.	.	.	.	.	.	.	.	.	.
8AA/J	.	.	.	.	.	.	.	.	.	.	.
=20	=20	=20	=20	=20	=20	=20	=20	=20	=20	=20	=20
8GG/L	.	1ryy	.	1ryy	.	1ryy	.	2gg\	.	1ryy	.
8AA/	.	.	.	.	.	.	.	.	.	.	.
8BB/	.	.	.	.	.	.	.	.	.	.	.
16AA/L	.	.	.	.	.	.	.	.	.	.	.
16GG/JJ	.	.	.	.	.	.	.	.	.	.	.
!LO:LB:g=original	!	!	!	!	!	!	!	!LO:LB:g=original	!	!	!
8BB/L	.	.	.	.	.	.	.	2dd\	.	.	.
8C/	.	.	.	.	.	.	.	.	.	.	.
8D/	#	.	.	.	.	.	.	.	.	.	.
16C/L	.	.	.	.	.	.	.	.	.	.	.
16BB/JJ	.	.	.	.	.	.	.	.	.	.	.
=21	=21	=21	=21	=21	=21	=21	=21	=21	=21	=21	=21
8G\L	.	1ryy	.	1ryy	.	1ryy	.	2b\	.	1ryy	.
8F#X\J	.	.	.	.	.	.	.	.	.	.	.
4.E\	6 4	.	.	.	.	.	.	.	.	.	.
!	!	!	!	!	!	!	!	!LO:SIC:s=2cc#	!	!	!
.	.	.	.	.	.	.	.	2cc\	.	.	.
16A\LL	.	.	.	.	.	.	.	.	.	.	.
16G\JJ	.	.	.	.	.	.	.	.	.	.	.
8F#X\L	.	.	.	.	.	.	.	.	.	.	.
8A\J	.	.	.	.	.	.	.	.	.	.	.
=22	=22	=22	=22	=22	=22	=22	=22	=22	=22	=22	=22
8D/L	.	1ryy	.	1ryy	.	1ryy	.	1dd	.	1ryy	.
8C#X/	.	.	.	.	.	.	.	.	.	.	.
8BB/	.	.	.	.	.	.	.	.	.	.	.
16AA/L	.	.	.	.	.	.	.	.	.	.	.
16GG/JJ	.	.	.	.	.	.	.	.	.	.	.
4D/	.	.	.	.	.	.	.	.	.	.	.
4GG/	.	.	.	.	.	.	.	.	.	.	.
=23	=23	=23	=23	=23	=23	=23	=23	=23	=23	=23	=23
8C/L	.	1ryy	.	1ryy	.	1ryy	.	2cc\	.	1ryy	.
8GG/J	.	.	.	.	.	.	.	.	.	.	.
4.C/	.	.	.	.	.	.	.	.	.	.	.
.	6 4	.	.	.	.	.	.	2a\	.	.	.
16BB/LL	.	.	.	.	.	.	.	.	.	.	.
16AA/JJ	.	.	.	.	.	.	.	.	.	.	.
4D/	#	.	.	.	.	.	.	.	.	.	.
=24	=24	=24	=24	=24	=24	=24	=24	=24	=24	=24	=24
!LO:TX:a:t=P:problem=mixed beam	!	!	!	!	!	!	!	!	!	!	!
8GG/L	.	1ryy	.	1ryy	.	1ryy	.	2b\	.	1ryy	.
16G\L	.	.	.	.	.	.	.	.	.	.	.
16F#X\JJ	.	.	.	.	.	.	.	.	.	.	.
8E\L	.	.	.	.	.	.	.	.	.	.	.
8D\J	.	.	.	.	.	.	.	.	.	.	.
8C/L	.	.	.	.	.	.	.	2cc\	.	.	.
16E/L	6	.	.	.	.	.	.	.	.	.	.
16D/JJ	.	.	.	.	.	.	.	.	.	.	.
8C/L	.	.	.	.	.	.	.	.	.	.	.
16BB/L	.	.	.	.	.	.	.	.	.	.	.
16AA/JJ	.	.	.	.	.	.	.	.	.	.	.
=25	=25	=25	=25	=25	=25	=25	=25	=25	=25	=25	=25
4GG/	.	1ryy	.	1ryy	.	1ryy	.	2b\	.	1ryy	.
4.BB/	6	.	.	.	.	.	.	.	.	.	.
.	4 2	.	.	.	.	.	.	2a\	.	.	.
16D\LL	#	.	.	.	.	.	.	.	.	.	.
16E\JJ	.	.	.	.	.	.	.	.	.	.	.
!LO:TX:a:t=P:problem=mixed beam	!	!	!	!	!	!	!	!	!	!	!
8D\L	#	.	.	.	.	.	.	.	.	.	.
8DD/J	.	.	.	.	.	.	.	.	.	.	.
!LO:LB:g=original	!	!	!	!	!	!	!	!LO:LB:g=original	!	!	!
=26	=26	=26	=26	=26	=26	=26	=26	=26	=26	=26	=26
4.G\	4 2	1ryy	.	1ryy	.	1ryy	.	1g	.	1ryy	.
.	6	.	.	.	.	.	.	.	.	.	.
16F#X\LL	.	.	.	.	.	.	.	.	.	.	.
16G\JJ	.	.	.	.	.	.	.	.	.	.	.
8BB/L	6	.	.	.	.	.	.	.	.	.	.
16C/L	.	.	.	.	.	.	.	.	.	.	.
16D/JJ	.	.	.	.	.	.	.	.	.	.	.
4GG/	.	.	.	.	.	.	.	.	.	.	.
=27	=27	=27	=27	=27	=27	=27	=27	=27	=27	=27	=27
8D\L	#	1ryy	.	1ryy	.	1ryy	.	2f#X/	.	1ryy	.
8E\	.	.	.	.	.	.	.	.	.	.	.
8F#X\	.	.	.	.	.	.	.	.	.	.	.
16E\L	.	.	.	.	.	.	.	.	.	.	.
16D\JJ	.	.	.	.	.	.	.	.	.	.	.
8GG/L	.	.	.	.	.	.	.	2g\	.	.	.
8AA/	.	.	.	.	.	.	.	.	.	.	.
8BB/	.	.	.	.	.	.	.	.	.	.	.
16AA/L	.	.	.	.	.	.	.	.	.	.	.
16GG/JJ	.	.	.	.	.	.	.	.	.	.	.
=28	=28	=28	=28	=28	=28	=28	=28	=28	=28	=28	=28
8D/L	#	1ryy	.	1ryy	.	1ryy	.	2a\	.	1ryy	.
8AA/J	.	.	.	.	.	.	.	.	.	.	.
4.C/	6 4	.	.	.	.	.	.	.	.	.	.
.	7	.	.	.	.	.	.	2b\	.	.	.
16BB/LL	.	.	.	.	.	.	.	.	.	.	.
16AA/JJ	.	.	.	.	.	.	.	.	.	.	.
4GG/	.	.	.	.	.	.	.	.	.	.	.
=29	=29	=29	=29	=29	=29	=29	=29	=29	=29	=29	=29
8D\L	.	1ryy	.	1ryy	.	1ryy	.	2a\	.	1ryy	.
8E\	.	.	.	.	.	.	.	.	.	.	.
8F\	.	.	.	.	.	.	.	.	.	.	.
16E\L	.	.	.	.	.	.	.	.	.	.	.
16D\JJ	.	.	.	.	.	.	.	.	.	.	.
8E\L	.	.	.	.	.	.	.	2g/	.	.	.
16BB\L	.	.	.	.	.	.	.	.	.	.	.
16C\JJ	.	.	.	.	.	.	.	.	.	.	.
!LO:TX:a:t=P:problem=mixed beam	!	!	!	!	!	!	!	!	!	!	!
8D\L	.	.	.	.	.	.	.	.	.	.	.
8GG/J	.	.	.	.	.	.	.	.	.	.	.
=30	=30	=30	=30	=30	=30	=30	=30	=30	=30	=30	=30
8F#X\L	.	1ryy	.	1ryy	.	1ryy	.	2f#X/	.	1ryy	.
16E\L	.	.	.	.	.	.	.	.	.	.	.
16F#\JJ	.	.	.	.	.	.	.	.	.	.	.
4.D\	.	.	.	.	.	.	.	.	.	.	.
.	4 2	.	.	.	.	.	.	2e/	.	.	.
16A\LL	.	.	.	.	.	.	.	.	.	.	.
16G\JJ	.	.	.	.	.	.	.	.	.	.	.
!LO:TX:a:t=P:problem=mixed beam	!	!	!	!	!	!	!	!	!	!	!
8A\L	.	.	.	.	.	.	.	.	.	.	.
8AA/J	.	.	.	.	.	.	.	.	.	.	.
=31	=31	=31	=31	=31	=31	=31	=31	=31	=31	=31	=31
8D/L	.	1ryy	.	1ryy	.	1ryy	.	1d	.	1ryy	.
8C/	.	.	.	.	.	.	.	.	.	.	.
8BB/	.	.	.	.	.	.	.	.	.	.	.
8AA/J	.	.	.	.	.	.	.	.	.	.	.
8BB/L	.	.	.	.	.	.	.	.	.	.	.
16AA/L	.	.	.	.	.	.	.	.	.	.	.
16GG/JJ	.	.	.	.	.	.	.	.	.	.	.
4D/	.	.	.	.	.	.	.	.	.	.	.
!LO:LB:g=original	!	!	!	!	!	!	!	!LO:LB:g=original	!	!	!
=32	=32	=32	=32	=32	=32	=32	=32	=32	=32	=32	=32
4GG/	.	1ryy	.	1ryy	.	1ryy	.	2g\	.	1ryy	.
4.G\	.	.	.	.	.	.	.	.	.	.	.
.	4 2	.	.	.	.	.	.	2a\	.	.	.
16F#X\LL	.	.	.	.	.	.	.	.	.	.	.
16E\JJ	.	.	.	.	.	.	.	.	.	.	.
!LO:N:vis=4.	!	!	!	!	!	!	!	!	!	!	!
[4F#\	.	.	.	.	.	.	.	.	.	.	.
=33	=33	=33	=33	=33	=33	=33	=33	=33	=33	=33	=33
8F#\]	.	1ryy	.	1ryy	.	1ryy	.	2b\	.	1ryy	.
16E\LL	.	.	.	.	.	.	.	.	.	.	.
16D\JJ	.	.	.	.	.	.	.	.	.	.	.
8E\L	.	.	.	.	.	.	.	.	.	.	.
8BB\J	.	.	.	.	.	.	.	.	.	.	.
8C/L	.	.	.	.	.	.	.	2g\	.	.	.
16BB/L	.	.	.	.	.	.	.	.	.	.	.
16AA/JJ	.	.	.	.	.	.	.	.	.	.	.
4.GG/	.	.	.	.	.	.	.	.	.	.	.
=34	=34	=34	=34	=34	=34	=34	=34	=34	=34	=34	=34
.	.	1ryy	.	1ryy	.	1ryy	.	2dd\	.	1ryy	.
16BB/LL	.	.	.	.	.	.	.	.	.	.	.
16C/JJ	.	.	.	.	.	.	.	.	.	.	.
!LO:TX:a:t=P:problem=mixed beam	!	!	!	!	!	!	!	!	!	!	!
8D\L	.	.	.	.	.	.	.	.	.	.	.
8GG/J	.	.	.	.	.	.	.	.	.	.	.
4.C/	.	.	.	.	.	.	.	2ee\	.	.	.
16BB/LL	.	.	.	.	.	.	.	.	.	.	.
16AA/JJ	.	.	.	.	.	.	.	.	.	.	.
=35	=35	=35	=35	=35	=35	=35	=35	=35	=35	=35	=35
8BB/L	.	1ryy	.	1ryy	.	1ryy	.	1dd	.	1ryy	.
8AA/	.	.	.	.	.	.	.	.	.	.	.
8BB/	.	.	.	.	.	.	.	.	.	.	.
16AA/L	.	.	.	.	.	.	.	.	.	.	.
16GG/JJ	.	.	.	.	.	.	.	.	.	.	.
8DD/L	.	.	.	.	.	.	.	.	.	.	.
8BB/	.	.	.	.	.	.	.	.	.	.	.
8C/	.	.	.	.	.	.	.	.	.	.	.
8D/J	#	.	.	.	.	.	.	.	.	.	.
=36	=36	=36	=36	=36	=36	=36	=36	=36	=36	=36	=36
8G\L	.	1ryy	.	1ryy	.	1ryy	.	2g\	.	1ryy	.
8D\	.	.	.	.	.	.	.	.	.	.	.
8G\	.	.	.	.	.	.	.	.	.	.	.
16F#X\L	.	.	.	.	.	.	.	.	.	.	.
16E\JJ	.	.	.	.	.	.	.	.	.	.	.
8F#X\L	6	.	.	.	.	.	.	2a\	.	.	.
16D\L	.	.	.	.	.	.	.	.	.	.	.
16E\J	.	.	.	.	.	.	.	.	.	.	.
8F#X\	.	.	.	.	.	.	.	.	.	.	.
!LO:TX:b:t=prze(...)idnąć proszę.	!	!	!	!	!	!	!	!	!	!	!
8D\J	.	.	.	.	.	.	.	.	.	.	.
!LO:PB:g=original	!	!	!	!	!	!	!	!LO:LB:g=original	!	!	!
=37	=37	=37	=37	=37	=37	=37	=37	=37	=37	=37	=37
8GG/L	.	1ryy	.	1ryy	.	1ryy	.	2b\	.	1ryy	.
8AA/	.	.	.	.	.	.	.	.	.	.	.
8BB/	.	.	.	.	.	.	.	.	.	.	.
16AA/L	.	.	.	.	.	.	.	.	.	.	.
16GG/JJ	.	.	.	.	.	.	.	.	.	.	.
4.C/	.	.	.	.	.	.	.	2cc\	.	.	.
16D/LL	.	.	.	.	.	.	.	.	.	.	.
16C/JJ	.	.	.	.	.	.	.	.	.	.	.
=38	=38	=38	=38	=38	=38	=38	=38	=38	=38	=38	=38
8G\L	.	1ryy	.	1ryy	.	1ryy	.	1b	.	1ryy	.
16D\L	.	.	.	.	.	.	.	.	.	.	.
16C\JJ	.	.	.	.	.	.	.	.	.	.	.
8BB/L	.	.	.	.	.	.	.	.	.	.	.
8AA/J	.	.	.	.	.	.	.	.	.	.	.
8GG/L	.	.	.	.	.	.	.	.	.	.	.
8AA/	.	.	.	.	.	.	.	.	.	.	.
8BB/	.	.	.	.	.	.	.	.	.	.	.
8C/J	.	.	.	.	.	.	.	.	.	.	.
=39	=39	=39	=39	=39	=39	=39	=39	=39	=39	=39	=39
8D/L	#	1ryy	.	1ryy	.	1ryy	.	1a	.	1ryy	.
8AA/J	.	.	.	.	.	.	.	.	.	.	.
8BB/L	.	.	.	.	.	.	.	.	.	.	.
16AA/L	.	.	.	.	.	.	.	.	.	.	.
16GG/JJ	.	.	.	.	.	.	.	.	.	.	.
8D/L	#	.	.	.	.	.	.	.	.	.	.
8AA/J	.	.	.	.	.	.	.	.	.	.	.
8BB/L	.	.	.	.	.	.	.	.	.	.	.
16AA/L	.	.	.	.	.	.	.	.	.	.	.
16BB/JJ	.	.	.	.	.	.	.	.	.	.	.
=40	=40	=40	=40	=40	=40	=40	=40	=40	=40	=40	=40
8GG/L	.	1ryy	.	1ryy	.	1ryy	.	1g	.	1ryy	.
16AA/L	.	.	.	.	.	.	.	.	.	.	.
16BB/JJ	6	.	.	.	.	.	.	.	.	.	.
8GG/L	.	.	.	.	.	.	.	.	.	.	.
8C/J	.	.	.	.	.	.	.	.	.	.	.
4D/	5 #3	.	.	.	.	.	.	.	.	.	.
.	6 4	.	.	.	.	.	.	.	.	.	.
4GG/	.	.	.	.	.	.	.	.	.	.	.
!LO:PB:g=original	!	!	!	!	!	!	!	!LO:PB:g=original	!	!	!
=41||	=41||	=41||	=41||	=41||	=41||	=41||	=41||	=41||	=41||	=41||	=41||
*>C	*	*>C	*	*>C	*	*>C	*	*>C	*	*>C	*
*M2/2	*	*M2/2	*	*M2/2	*	*M2/2	*	*M2/2	*	*M2/2	*
*met(c|)	*	*met(c|)	*	*met(c|)	*	*met(c|)	*	*met(c|)	*	*met(c|)	*
!LO:TX:b:B:t=Naturam Alto	!	!LO:TX:a:B:t=Natura(m) Tacet	!	!LO:TX:a:B:t=Naturam Tacet	!	!	!	!LO:TX:a:B:t=Naturam Alto Tacet	!	!LO:TX:a:B:t=Naturam Tacet	!
1GG	#	1ryy	.	1ryy	.	4r	.	1ryy	.	1ryy	.
!	!	!	!	!	!	!LO:TX:a:t=P:problem=niejednoznaczny zapis łuku	!	!	!	!	!
.	.	.	.	.	.	(16G/LL	Na-	.	.	.	.
.	.	.	.	.	.	16A/	.	.	.	.	.
.	.	.	.	.	.	16B/	.	.	.	.	.
.	.	.	.	.	.	16c/JJ)	.	.	.	.	.
.	.	.	.	.	.	4d\	-tu-	.	.	.	.
.	.	.	.	.	.	4B/	-ram	.	.	.	.
=42	=42	=42	=42	=42	=42	=42	=42	=42	=42	=42	=42
4C/	.	1ryy	.	1ryy	.	8r	.	1ryy	.	1ryy	.
.	.	.	.	.	.	8e\	Na-	.	.	.	.
8GG/L	.	.	.	.	.	8d\	-tu-	.	.	.	.
8AA/J	.	.	.	.	.	8c\	-ram	.	.	.	.
4G\	.	.	.	.	.	4.B/	Su-	.	.	.	.
8F#X\L	.	.	.	.	.	.	.	.	.	.	.
8E\J	.	.	.	.	.	8c/	-per-	.	.	.	.
=43	=43	=43	=43	=43	=43	=43	=43	=43	=43	=43	=43
4D/	.	1ryy	.	1ryy	.	4d\	-et	1ryy	.	1ryy	.
8GG/L	.	.	.	.	.	8g\	Na-	.	.	.	.
!	!	!	!	!	!	!LO:TX:a:t=P:problem=krzyżyk nad nutą	!	!	!	!	!
8BB/J	# 5	.	.	.	.	8f#X\	-tus	.	.	.	.
!LO:LB:g=original	!	!	!	!	!	!	!	!	!	!	!
4C/	.	.	.	.	.	4e\	na-	.	.	.	.
!	!	!	!	!	!	!LO:TX:a:t=P:problem=krzyżyk nad nutą	!	!	!	!	!
4D/	#	.	.	.	.	4f#X\	-tus	.	.	.	.
=44	=44	=44	=44	=44	=44	=44	=44	=44	=44	=44	=44
4BB/	.	1ryy	.	1ryy	.	8r	.	1ryy	.	1ryy	.
.	.	.	.	.	.	8d\	Na-	.	.	.	.
8AA/L	.	.	.	.	.	8e\	-tus	.	.	.	.
!	!	!	!	!	!	!LO:TX:a:t=P:problem=krzyżyk nad nutą	!	!	!	!	!
8D/J	.	.	.	.	.	8f#X\	Rex	.	.	.	.
2AA/	#	.	.	.	.	4.e\	glo-	.	.	.	.
.	.	.	.	.	.	8e\	-ri-	.	.	.	.
=45	=45	=45	=45	=45	=45	=45	=45	=45	=45	=45	=45
4D/	.	1ryy	.	1ryy	.	4d\	-a	1ryy	.	1ryy	.
4GG/	.	.	.	.	.	16d\LL	re-	.	.	.	.
.	.	.	.	.	.	16e\	.	.	.	.	.
.	.	.	.	.	.	16d\	.	.	.	.	.
.	.	.	.	.	.	16c\JJ	.	.	.	.	.
4EE/	.	.	.	.	.	8B/	-gnet	.	.	.	.
.	.	.	.	.	.	8B/	.	.	.	.	.
4C/	.	.	.	.	.	16e\LL	re-	.	.	.	.
.	.	.	.	.	.	16f\	.	.	.	.	.
.	.	.	.	.	.	16e\	.	.	.	.	.
.	.	.	.	.	.	16d\JJ	.	.	.	.	.
!	!	!	!	!	!	!LO:PB:g=original	!	!	!	!	!
=46	=46	=46	=46	=46	=46	=46	=46	=46	=46	=46	=46
2AA/	.	1ryy	.	1ryy	.	4c\	.	1ryy	.	1ryy	.
.	.	.	.	.	.	8c\	-gnet	.	.	.	.
.	.	.	.	.	.	8e\	et	.	.	.	.
8C/L	6	.	.	.	.	8.A/	im-	.	.	.	.
8D/J	-	.	.	.	.	.	.	.	.	.	.
.	.	.	.	.	.	16A/	-pe-	.	.	.	.
4AA/	4	.	.	.	.	8A/	-ret	.	.	.	.
.	.	.	.	.	.	8d\	et	.	.	.	.
=47	=47	=47	=47	=47	=47	=47	=47	=47	=47	=47	=47
4BB/	6	1ryy	.	1ryy	.	8.G/	im-	1ryy	.	1ryy	.
.	.	.	.	.	.	16G/	-pe-	.	.	.	.
4GG/	.	.	.	.	.	8G/	-ret	.	.	.	.
.	.	.	.	.	.	8G/	et	.	.	.	.
4AA/	.	.	.	.	.	4c/	Zy-	.	.	.	.
4D/	.	.	.	.	.	4A/	-ma-	.	.	.	.
=48	=48	=48	=48	=48	=48	=48	=48	=48	=48	=48	=48
4BB/	.	1ryy	.	1ryy	.	8.d\	-sco-	1ryy	.	1ryy	.
.	.	.	.	.	.	16c/	-ri-	.	.	.	.
4E\	.	.	.	.	.	4B/	-ae	.	.	.	.
4C/	.	.	.	.	.	16e\LL	tol-	.	.	.	.
.	.	.	.	.	.	16d\	.	.	.	.	.
.	.	.	.	.	.	16c\	.	.	.	.	.
.	.	.	.	.	.	16B\JJ	.	.	.	.	.
4D/	#	.	.	.	.	4A/	-lat	.	.	.	.
=49	=49	=49	=49	=49	=49	=49	=49	=49	=49	=49	=49
2GG/	.	1ryy	.	1ryy	.	16d\LL	to-	1ryy	.	1ryy	.
.	.	.	.	.	.	16c\	.	.	.	.	.
.	.	.	.	.	.	16B\	.	.	.	.	.
.	.	.	.	.	.	16A\JJ	.	.	.	.	.
.	.	.	.	.	.	8G/	-lat	.	.	.	.
.	.	.	.	.	.	8G/	tol-	.	.	.	.
!	!	!	!	!	!	!LO:SIC:l:s=-lat:v	!	!	!	!	!
4E\	.	.	.	.	.	4g\	-la	.	.	.	.
4BB/	.	.	.	.	.	4g\	de	.	.	.	.
=50	=50	=50	=50	=50	=50	=50	=50	=50	=50	=50	=50
2C/	# 3	1ryy	.	1ryy	.	4g\	me-	1ryy	.	1ryy	.
!	!	!	!	!	!	!LO:TX:a:t=P:problem=krzyżyk nad nutą	!	!	!	!	!
.	.	.	.	.	.	(8f#X\L	.	.	.	.	.
.	.	.	.	.	.	8e\J)	.	.	.	.	.
!LO:TX:a:t=P:problem=brak kreski taktowej	!	!	!	!	!	!	!	!	!	!	!
2D/	3	.	.	.	.	(4.f#\	-di-	.	.	.	.
!	!	!	!	!	!	!LO:TX:a:t=P:problem=brak kreski taktowej	!	!	!	!	!
.	.	.	.	.	.	8f#\)	.	.	.	.	.
=51-z	=51	=51	=51	=51	=51	=51-z	=51	=51	=51	=51	=51
!LO:TX:a:t=P:problem=kreska taktowa pojedyncza	!	!	!	!	!	!LO:TX:a:t=P:problem=kreska taktowa pojedyncza	!	!	!	!	!
1GG;;	.	1ryy	.	1ryy	.	1g	-o	1ryy	.	1ryy	.
!LO:LB:g=original	!	!	!	!	!	!	!	!	!	!	!
=52||	=52||	=52||	=52||	=52||	=52||	=52||	=52||	=52||	=52||	=52||	=52||
*>D	*	*>D	*	*>D	*	*>D	*	*>D	*	*>D	*
*M2/2	*	*M2/2	*	*M2/2	*	*M2/2	*	*M2/2	*	*M2/2	*
*met(c|)	*	*met(c|)	*	*met(c|)	*	*met(c|)	*	*met(c|)	*	*met(c|)	*
!LO:TX:b:B:t=Foras Basso Solo	!	!	!	!LO:TX:a:B:t=Foras Tacet.	!	!LO:TX:a:B:t=Foras Tacet	!	!LO:TX:a:B:t=Foras Tacet	!	!LO:TX:a:B:t=Foras nunc tacet	!
1GG	#	8r	.	1ryy	.	1ryy	.	1ryy	.	1ryy	.
.	.	16G\	Fo-	.	.	.	.	.	.	.	.
.	.	16G\	-ras	.	.	.	.	.	.	.	.
.	.	8B\	{Fo-	.	.	.	.	.	.	.	.
.	.	8G\	-ras}	.	.	.	.	.	.	.	.
.	.	8r	.	.	.	.	.	.	.	.	.
.	.	16BB/	{Fo-	.	.	.	.	.	.	.	.
.	.	16BB/	-ras}	.	.	.	.	.	.	.	.
.	.	8D/	{Fo-	.	.	.	.	.	.	.	.
.	.	8D/	-ras}	.	.	.	.	.	.	.	.
=53	=53	=53	=53	=53	=53	=53	=53	=53	=53	=53	=53
4BB/	# 5	8r	.	1ryy	.	1ryy	.	1ryy	.	1ryy	.
.	.	16D\	{Fo-	.	.	.	.	.	.	.	.
.	.	16D\	-ras}	.	.	.	.	.	.	.	.
4AA/	.	8G\	{Fo-	.	.	.	.	.	.	.	.
.	.	8G\	-ras}	.	.	.	.	.	.	.	.
4GG/	.	4G\	fo-	.	.	.	.	.	.	.	.
4D/	#	8G\	-ras	.	.	.	.	.	.	.	.
.	.	8F#X\	e-	.	.	.	.	.	.	.	.
!	!	!LO:LB:g=original	!	!	!	!	!	!	!	!	!
=54	=54	=54	=54	=54	=54	=54	=54	=54	=54	=54	=54
!	!	!LO:SIC:l:s=-ji-:v	!	!	!	!	!	!	!	!	!
4.GG/	.	8.G\	-ij-	1ryy	.	1ryy	.	1ryy	.	1ryy	.
.	.	16G\	-ci-	.	.	.	.	.	.	.	.
.	.	4G\	-at	.	.	.	.	.	.	.	.
8GG/	.	.	.	.	.	.	.	.	.	.	.
8GG/L	.	8r	.	.	.	.	.	.	.	.	.
8BB/	.	8BB/	mun-	.	.	.	.	.	.	.	.
8C/	.	8C/	-da-	.	.	.	.	.	.	.	.
8AA/J	.	8AA/	-num	.	.	.	.	.	.	.	.
=55	=55	=55	=55	=55	=55	=55	=55	=55	=55	=55	=55
2D/	3 #	4.D/	Prin-	1ryy	.	1ryy	.	1ryy	.	1ryy	.
.	.	8D/	-ci-	.	.	.	.	.	.	.	.
2GG/	.	8GG/	-pem	.	.	.	.	.	.	.	.
.	.	8D\	Ma-	.	.	.	.	.	.	.	.
.	.	8E\	-trem-	.	.	.	.	.	.	.	.
.	.	8F\	-q(ue)	.	.	.	.	.	.	.	.
=56	=56	=56	=56	=56	=56	=56	=56	=56	=56	=56	=56
4GG/	.	4.G\	fa-	1ryy	.	1ryy	.	1ryy	.	1ryy	.
8AA/L	.	.	.	.	.	.	.	.	.	.	.
8BB/J	.	8F\	-ci-	.	.	.	.	.	.	.	.
4.C/	.	8E\	-at	.	.	.	.	.	.	.	.
.	.	8E\	Ma-	.	.	.	.	.	.	.	.
.	.	8F\	-trem-	.	.	.	.	.	.	.	.
8BB/	6	8G\	-q(ue)	.	.	.	.	.	.	.	.
=57	=57	=57	=57	=57	=57	=57	=57	=57	=57	=57	=57
4AA/	.	4.A\	fa-	1ryy	.	1ryy	.	1ryy	.	1ryy	.
8BB/L	.	.	.	.	.	.	.	.	.	.	.
8C/J	.	8G\	-ci-	.	.	.	.	.	.	.	.
2D/	.	4F\	-at	.	.	.	.	.	.	.	.
.	.	4D\	Se-	.	.	.	.	.	.	.	.
=58	=58	=58	=58	=58	=58	=58	=58	=58	=58	=58	=58
4AA/	.	4E\	-cum	1ryy	.	1ryy	.	1ryy	.	1ryy	.
4D/	.	4F\	par-	.	.	.	.	.	.	.	.
2AA/	#	4.E\	-ti-	.	.	.	.	.	.	.	.
.	.	8E\	-ci-	.	.	.	.	.	.	.	.
!LO:LB:g=original	!	!	!	!	!	!	!	!	!	!	!
=59	=59	=59	=59	=59	=59	=59	=59	=59	=59	=59	=59
2D/	.	4D\	-pem	1ryy	.	1ryy	.	1ryy	.	1ryy	.
!	!	!LO:TX:a:t=P:problem=tekst brak "-tris" w słowie "Patris"	!	!	!	!	!	!	!	!	!
.	.	8D\L	Pa	.	.	.	.	.	.	.	.
.	.	16E\L	.	.	.	.	.	.	.	.	.
.	.	16F\JJ	.	.	.	.	.	.	.	.	.
4GG/	.	16G\LL	.	.	.	.	.	.	.	.	.
.	.	16A\	.	.	.	.	.	.	.	.	.
.	.	16G\	.	.	.	.	.	.	.	.	.
.	.	16F\JJ	.	.	.	.	.	.	.	.	.
4C/	.	8E\L	.	.	.	.	.	.	.	.	.
.	.	16F\L	.	.	.	.	.	.	.	.	.
.	.	16G\JJ	.	.	.	.	.	.	.	.	.
!	!	!LO:LB:g=original	!	!	!	!	!	!	!	!	!
=60	=60	=60	=60	=60	=60	=60	=60	=60	=60	=60	=60
4AA/	.	16A\LL	.	1ryy	.	1ryy	.	1ryy	.	1ryy	.
.	.	16B\	.	.	.	.	.	.	.	.	.
.	.	16G\	.	.	.	.	.	.	.	.	.
.	.	16A\JJ	.	.	.	.	.	.	.	.	.
4D/	.	16F\LL	.	.	.	.	.	.	.	.	.
.	.	16G\	.	.	.	.	.	.	.	.	.
.	.	16E\	.	.	.	.	.	.	.	.	.
.	.	16F\JJ	.	.	.	.	.	.	.	.	.
4.GG/	.	16D\LL	.	.	.	.	.	.	.	.	.
.	.	16E\	.	.	.	.	.	.	.	.	.
.	.	16D\	.	.	.	.	.	.	.	.	.
.	.	16C\JJ	.	.	.	.	.	.	.	.	.
.	.	16BB/LL	.	.	.	.	.	.	.	.	.
.	.	16C/	.	.	.	.	.	.	.	.	.
8AA/	.	16BB/	.	.	.	.	.	.	.	.	.
.	.	16AA/JJ	.	.	.	.	.	.	.	.	.
=61	=61	=61	=61	=61	=61	=61	=61	=61	=61	=61	=61
4BB/	.	(8GG/L	Pa-	1ryy	.	1ryy	.	1ryy	.	1ryy	.
.	.	8AA/J)	.	.	.	.	.	.	.	.	.
4C/	.	8BB/	-tris	.	.	.	.	.	.	.	.
.	.	8C/	im-	.	.	.	.	.	.	.	.
2D/	#	8D/L	-pe-	.	.	.	.	.	.	.	.
.	.	(16BB/L	.	.	.	.	.	.	.	.	.
.	.	16C/JJ)	.	.	.	.	.	.	.	.	.
.	.	(16D/LL	.	.	.	.	.	.	.	.	.
.	.	16C/JJ)	.	.	.	.	.	.	.	.	.
.	.	16BB/	-ri-	.	.	.	.	.	.	.	.
.	.	16AA/	.	.	.	.	.	.	.	.	.
=62	=62	=62	=62	=62	=62	=62	=62	=62	=62	=62	=62
!LO:TX:a:t=P:problem=kreska taktowa pojedyncza	!	!	!	!	!	!	!	!	!	!	!
1GG;;	.	1GG;;	-i	1ryy	.	1ryy	.	1ryy	.	1ryy	.
!	!	!	!	!	!	!LO:LB:g=original	!	!LO:LB:g=original	!	!	!
=63|	=63||	=63|	=63||	=63||	=63||	=63||	=63||	=63||	=63||	=63||	=63||
*>E	*	*>E	*	*>E	*	*>E	*	*>E	*	*>E	*
*M2/2	*	*M2/2	*	*M2/2	*	*M2/2	*	*M2/2	*	*M2/2	*
*met(c|)	*	*met(c|)	*	*met(c|)	*	*met(c|)	*	*met(c|)	*	*met(c|)	*
!LO:TX:b:B:t=Accede Canto.	!	!LO:TX:a:t=P:problem=brak kreski taktowej	!	!LO:TX:a:t=P:problem=brak kreski taktowej	!	!LO:TX:a:t=P:problem=brak kreski taktowej	!	!	!	!	!
2G\	.	00r	.	00r	.	00r	.	2r	.	4r	.
.	.	.	.	.	.	.	.	.	.	16b\LL	Ac-
.	.	.	.	.	.	.	.	.	.	16a\	.
.	.	.	.	.	.	.	.	.	.	16b\	.
.	.	.	.	.	.	.	.	.	.	16cc\JJ	.
4F#X\	6	.	.	.	.	.	.	4r	.	4dd\	-ce-
4G\	.	.	.	.	.	.	.	8r	.	8b\	-de
.	.	.	.	.	.	.	.	8g\	Ac-	8b\	ac-
=64	=64	=64	=64	=64	=64	=64	=64	=64	=64	=64	=64
8C\L	.	.	.	.	.	.	.	4cc\	-ce-	4ee\	-ce-
8D\	.	.	.	.	.	.	.	.	.	.	.
8E\	6	.	.	.	.	.	.	(16cc\LL	-de	16ee\LL	.
.	.	.	.	.	.	.	.	16b\	.	16dd\	.
8F\J	.	.	.	.	.	.	.	16cc\	.	16ee\	.
.	.	.	.	.	.	.	.	16dd\JJ)	.	16ff\JJ	.
2G\	.	.	.	.	.	.	.	4b\	.	4dd\	-de
.	.	.	.	.	.	.	.	8r	.	8r	.
.	.	.	.	.	.	.	.	8b\	ac-	8dd\	ac-
=65	=65	=65	=65	=65	=65	=65	=65	=65	=65	=65	=65
2AA/	-	.	.	.	.	.	.	8a\L	-ce-	8cc\L	-ce-
.	.	.	.	.	.	.	.	8g\	.	8b\	.
.	.	.	.	.	.	.	.	8a\	.	8cc\	.
.	.	.	.	.	.	.	.	8b\J	.	8dd\J	.
!LO:TX:a:t=P:problem=brak kreski taktowej	!	!	!	!	!	!	!	!	!	!LO:LB:g=original	!
2GG/	.	.	.	.	.	.	.	4g\	-de	4b\	-de
.	.	.	.	.	.	.	.	4b\	ac-	4dd\	ac-
=66-z	=66	=66	=66	=66	=66	=66	=66	=66	=66	=66	=66
2C/	.	.	.	.	.	.	.	8cc\L	-ce-	(8ee\L	-ce-
.	.	.	.	.	.	.	.	8b\J	.	8dd\)	.
.	.	.	.	.	.	.	.	8a\L	-de	(8cc\	-de
.	.	.	.	.	.	.	.	8g\J	.	8b\J)	.
2D/	#	.	.	.	.	.	.	4.f#X/	nun-	4.a\	nun-
.	.	.	.	.	.	.	.	8f#/	-ti-	8a\	-ti-
!LO:LB:g=original	!	!	!	!	!	!	!	!	!	!	!
=67	=67	=67-z	=67	=67-z	=67	=67-z	=67	=67	=67	=67	=67
!LO:TX:b:t=Tutti	!	!	!	!	!	!	!	!	!	!LO:TX:b:t=Tutti	!
2GG/	.	4r	.	4r	.	4r	.	4g/	-a	4g/	-a
.	.	4G\	Ac-	4B\	Ac-	4g\	Ac-	4b\	ac-	4dd\	ac-
4GG/	.	4G\	-ce-	4B\	-ce-	4d\	-ce-	4a\	-ce-	4dd\	-ce-
8GG/L	.	8G\	-de	8B\	-de	8d\	-de	8b\	-de	8dd\	-de
8GG/J	.	8G\	{Ac-	8d\	ac-	8g\	ac-	8b\	{ac-	8dd\	{ac-
=68	=68	=68	=68	=68	=68	=68	=68	=68	=68	=68	=68
4C/	.	4C/	-ce-	4c\	-ce-	4e\	-ce-	4cc\	-ce-	4ee\	-ce-
8C/L	.	8C/	-de}	8c\	-de	8g\	-de	8cc\	-de}	8ee\	-de}
8C/J	.	8C/	{Ac-	8e\	{ac-	8g\	{ac-	8cc\	{ac-	8ee\	{ac-
4GG/	.	4G\	-ce-	4B\	-ce-	4g\	-ce-	4b\	-ce-	4dd\	-ce-
8GG/L	.	8G\	-de}	8B\	-de}	8d\	-de}	8b\	-de}	8dd\	-de}
8GG/J	.	8G\	{Ac-	8d\	{ac-	8d\	{ac-	8b\	{ac-	8dd\	{ac-
!	!	!LO:LB:g=original	!	!	!	!	!	!LO:LB:g=original	!	!	!
=69	=69	=69	=69	=69	=69	=69	=69	=69	=69	=69	=69
4AA/	.	4A\	-ce-	4c\	-ce-	4e\	-ce-	4a\	-ce-	4cc\	-ce-
8AA/L	.	8A\	-de}	8A\	-de}	8a\	-de}	8a\	-de}	8cc\	-de}
8AA/J	.	8A\	{Ac-	8c\	{ac-	8a\	{ac-	8a\	{ac-	8cc\	{ac-
2GG/	.	4G\	-ce-	4d\	-ce-	4g\	-ce-	4g/	-ce-	4b\	-ce-
.	.	8G\	-de}	8d\	-de}	8g\	-de}	8g/	-de}	8b\	-de}
.	.	8G\	{Ac-	8B\	{ac-	8d\	{ac-	8b\	ac-	8dd\	{ac-
=70	=70	=70	=70	=70	=70	=70	=70	=70	=70	=70	=70
2C/	.	8C\L	-ce-	4c\	-ce-	8e\L	-ce-	8cc\L	-ce-	(8ee\L	-ce-
.	.	8D\	.	.	.	8f\J	.	8b\J	.	8dd\J)	.
.	.	8E\	-de}	8G/	-de}	4g\	-de}	8a\L	-de	(8cc\L	-de}
.	.	8C\J	.	8B\	.	.	.	8g\J	.	8b\J)	.
!	!	!	!	!	!	!LO:TX:a:t=P:problem=krzyżyk nad nutą	!	!	!	!	!
2D/	#	4.D/	Nun-	4.A/	nun-	4.f#X\	nun-	4.f#X/	nun-	4.a\	Nun-
.	.	8D/	-ti-	8A/	-ti-	8f#\	-ti-	8f#/	-ti-	8a\	-ti-
=71	=71	=71	=71	=71	=71	=71	=71	=71	=71	=71	=71
!LO:TX:a:t=P:problem=kreska taktowa pojedyncza	!	!	!	!	!	!	!	!	!	!LO:TX:a:t=P:problem=brak kreski taktowej	!
1GG	.	1GG;	-a	1G	-a	1g	-a	1g	-a	1b	-a
=72|	=72||	=72|	=72||	=72-z	=72||	=72||	=72||	=72||	=72||	=72	=72||
*>F	*	*>F	*	*>F	*	*>F	*	*>F	*	*>F	*
*M3/4	*	*M3/4	*	*M3/4	*	*M3/4	*	*M3/4	*	*M3/4	*
!LO:TX:b:B:t=Dic ave Canto Solo	!	!LO:TX:a:t=P:problem=brak kreski taktowej	!	!LO:TX:a:t=P:problem=brak kreski taktowej	!	!LO:N:vis=00	!	!	!	!LO:TX:a:t=Solo	!
!	!	!LO:N:vis=00	!	!LO:N:vis=00	!	!	!	!	!	!	!
4G\	.	0.r	.	0.r	.	0.r	.	4b\	Dic	4dd\	Dic
4E\	6	.	.	.	.	.	.	8e/L	a-	(8g\L	a-
!	!	!	!	!	!	!	!	!LO:SIC:s=8f#	!	!	!
.	.	.	.	.	.	.	.	8f/J	.	8a\)	.
8BB/L	6	.	.	.	.	.	.	8g\L	-ve	(8b\	-ve
8C/J	7	.	.	.	.	.	.	8a\J	.	8cc\J)	.
=73	=73	=73	=73	=73	=73	=73	=73	=73	=73	=73	=73
2D/	#	.	.	.	.	.	.	4.f#X/	Do-	4.a\	Do-
.	.	.	.	.	.	.	.	8f#/	-mi-	8a\	-mi-
4GG/	.	.	.	.	.	.	.	4g/	-nus	4g/	-n(us)
!	!	!	!	!	!	!	!	!	!	!LO:LB:g=original	!
=74	=74	=74	=74	=74	=74	=74	=74	=74	=74	=74	=74
4A\	.	.	.	.	.	.	.	4cc\	dic	4ee\	dic
4F\	6	.	.	.	.	.	.	8a\L	a-	(8a\L	a-
.	.	.	.	.	.	.	.	8g\J	.	8b\J)	.
!LO:TX:a:t=P:problem=brak kreski taktowej	!	!	!	!	!	!	!	!	!	!	!
4D\	6	.	.	.	.	.	.	8a\L	-ve	(8cc\L	-ve
.	.	.	.	.	.	.	.	8b\J	.	8dd\J)	.
=75-z	=75	=75	=75	=75	=75	=75	=75	=75	=75	=75	=75
2E\	#	.	.	.	.	.	.	4.g/	D(o-	4.b\	Do-
.	.	.	.	.	.	.	.	8g/	-mi)-	8b\	-mi-
4AA/	.	.	.	.	.	.	.	4a\	-nus	4a\	-nus
!LO:LB:g=original	!	!	!	!	!	!	!	!	!	!	!
=76	=76	=76-z	=76	=76	=76	=76	=76	=76	=76	=76	=76
!	!	!LO:TX:a:t=P:problem=brak kreski taktowej	!	!LO:TX:a:t=P:problem=brak kreski taktowej	!	!LO:N:vis=00	!	!	!	!	!
!	!	!LO:N:vis=00	!	!LO:N:vis=00	!	!	!	!	!	!	!
4D/	.	0.r	.	0.r	.	0.r	.	4a\	dic	4a\	dic
!	!	!	!	!	!	!	!	!LO:LB:g=original	!	!	!
4BB/	.	.	.	.	.	.	.	4g/	a-	(8b\L	ple-
.	.	.	.	.	.	.	.	.	.	8cc\J)	.
4GG/	.	.	.	.	.	.	.	4a\	-ve	4dd\	-na
=77	=77	=77	=77	=77	=77	=77	=77	=77	=77	=77	=77
2AA/	#	.	.	.	.	.	.	4.a\	Do-	4.dd\	gra-
!	!	!	!	!	!	!	!	!	!	!LO:TX:a:t=P:problem=krzyżyk nad nutą	!
.	.	.	.	.	.	.	.	8a\	-mi-	8cc#X\	-ti-
4DD/	.	.	.	.	.	.	.	4a\	-nus	4dd\	-a
=78	=78	=78	=78	=78	=78	=78	=78	=78	=78	=78	=78
4GG/	.	.	.	.	.	.	.	4b\	dic	4dd\	dic
4AA/	.	.	.	.	.	.	.	8cc\L	te-	(8ee\L	te-
.	.	.	.	.	.	.	.	8b\J	.	8dd\J)	.
8BB/L	.	.	.	.	.	.	.	8a\L	-cum	(8cc\L	-cum
8C/J	6	.	.	.	.	.	.	8g\J	.	8b\J)	.
=79	=79	=79	=79	=79	=79	=79	=79	=79	=79	=79	=79
2D/	3 #	.	.	.	.	.	.	4.f#X/	D(o-	4.a\	Do-
.	.	.	.	.	.	.	.	8f#/	-mi)-	8a\	-mi-
4GG/	.	.	.	.	.	.	.	4g/	-nus	4g/	-n(us)
=80	=80	=80-z	=80	=80-z	=80	=80	=80	=80	=80	=80	=80
!	!	!LO:TX:a:t=P:problem=brak kreski taktowej	!	!LO:N:vis=0	!	!	!	!	!	!	!
!	!	!LO:N:vis=0	!	!LO:TX:a:t=P:problem=brak kreski taktowej	!	!LO:N:vis=0	!	!	!	!	!
4GG/	.	1.r	.	1.r	.	1.r	.	4b\	{dic	4dd\	{dic
4AA/	.	.	.	.	.	.	.	8cc\L	te-	8ee\L	te-
.	.	.	.	.	.	.	.	8b\J	.	8dd\J	.
8BB/L	.	.	.	.	.	.	.	16a\LL	-cum	16cc\LL	-cum
.	.	.	.	.	.	.	.	16b\	.	16dd\	.
8C/J	6	.	.	.	.	.	.	16a\	.	16cc\	.
.	.	.	.	.	.	.	.	16g\JJ	.	16b\JJ	.
=81	=81	=81	=81	=81	=81	=81	=81	=81	=81	=81	=81
2D/	3 #	.	.	.	.	.	.	4.f#X/	D(o-	4.a\	Do-
.	.	.	.	.	.	.	.	8f#/	-mi)-	8a\	-mi-
!	!	!	!	!	!	!	!	!LO:TX:a:t=P:problem=brak kreski taktowej	!	!	!
4GG/	.	.	.	.	.	.	.	4g/	-nus}	4g/	-n(us)}
=82	=82	=82-z	=82	=82-z	=82	=82	=82	=82-z	=82	=82	=82
!LO:TX:b:t=Tutti	!	!	!	!	!	!LO:TX:a:t=P:problem=krzyżyk nad nutą	!	!LO:N:vis=0	!	!	!
4D\	.	4D/	dic	4d\	dic	4f#X\	dic	1.r	.	4a\	dic
4D\	#	4D/	ple-	4A\	ple-	8f#\L	ple-	.	.	(8a\L	ple-
.	.	.	.	.	.	8e\	.	.	.	8b\J)	.
!LO:TX:a:t=P:problem=brak kreski taktowej	!	!	!	!	!	!	!	!	!	!	!
4D\	.	4D/	-na	4A\	-na	8f#\	-na	.	.	(8cc\L	-na
.	.	.	.	.	.	8d\J	.	.	.	8dd\J)	.
=83-z	=83	=83	=83	=83	=83	=83	=83	=83-z	=83	=83	=83
!	!	!	!	!	!	!	!	!LO:TX:a:t=P:problem=brak kreski taktowej	!	!	!
4.GG/	.	4.G\	gra-	4.B\	gra-	4.g\	gra-	.	.	4.b\	gra-
8GG/	.	8G\	-ti-	8c\	-ti-	8g\	-ti-	.	.	8b\	-ti-
4GG/	.	4G\	-a	4d\	-a	4g\	-a	.	.	4b\	-a
!	!	!	!	!	!	!	!	!	!	!LO:LB:g=original	!
=84	=84	=84	=84	=84	=84	=84	=84	=84-z	=84	=84	=84
4E\	.	4E\	dic	4e\	dic	4g\	dic	4g/	dic	4b\	dic
4E\	#	4E\	te-	8e\L	te-	8g\L	te-	8g\L	te-	(8b\L	te-
!	!	!	!	!	!	!LO:TX:a:t=P:problem=krzyżyk nad nutą	!	!	!	!	!
.	.	.	.	(16d\L	.	8f#X\	.	8a\J	.	8cc\J)	.
.	.	.	.	16c\JJ)	.	.	.	.	.	.	.
!	!	!LO:TX:a:t=P:problem=brak kreski taktowej	!	!	!	!	!	!	!	!	!
4E\	.	4E\	-cu(m)	4B\	-cu(m)	8g\	-cum	8b\L	-cum	(8dd\L	-cum
.	.	.	.	.	.	8e\J	.	8cc\J	.	8ee\J)	.
!	!	!	!	!LO:LB:g=original	!	!LO:LB:g=original	!	!	!	!	!
=85	=85	=85-z	=85	=85	=85	=85	=85	=85	=85	=85	=85
4.AA/	.	4.A\	Do-	4.e\	Do-	4.a\	Do-	4.a\	Do-	4.cc\	Do-
!	!	!	!	!	!	!LO:TX:a:t=P:problem=krzyżyk nad nutą	!	!	!	!	!
8AA/	#	8A\	-mi-	8d\	-mi-	8g#X\	-mi-	8a\	-mi-	8cc\	-mi-
!	!	!LO:TX:a:t=P:problem=brak kreski taktowej	!	!	!	!	!	!	!	!	!
4AA/	.	4A\	-n(us)	4c#X\	-n(us)	4a\	-n(us)	4a\	-nus	4cc\	-n(us)
!LO:PB:g=original	!	!	!	!	!	!	!	!LO:LB:g=original	!	!	!
=86	=86	=86-z	=86	=86	=86	=86	=86	=86	=86	=86	=86
!LO:N:acc=-	!	!	!	!LO:N:acc=-	!	!	!	!	!	!	!
4Fn\	5-	(4F\	Do-	4cn\	Do-	4a\	{Do-	4a\	Do-	4cc\	Do-
!	!	!	!	!	!	!	!	!LO:SIC:s=4.a:v	!	!	!
4D\	6	4D\)	.	(8d\L	.	4.a\	-mi-	[4.g\	-mi-	[4.b\	-mi-
.	.	.	.	8c\J)	.	.	.	.	.	.	.
4E\	#	8.E\	-mi-	8B\	-mi-	.	.	.	.	.	.
!	!	!	!	!	!	!LO:TX:a:t=P:problem=brak kreski taktowej	!	!LO:SIC:s=8g#:v	!	!	!
!	!	!	!	!LO:TX:a:t=P:problem=brak kreski taktowej	!	!LO:TX:a:t=P:problem=krzyżyk nad nutą	!	!LO:TX:a:t=P:problem=brak kreski taktowej	!	!	!
.	.	.	.	8B\	.	8g#X\	.	8g\]	.	8b\]	.
.	.	16E\	.	.	.	.	.	.	.	.	.
=87	=87	=87	=87	=87-z	=87	=87-z	=87	=87-z	=87	=87	=87
*	*	*	*	*2\right	*	*	*	*	*	*2\right	*
!	!	!	!	!	!	!LO:TX:a:t=P:problem=brak kreski taktowej	!	!	!	!	!
!	!	!LO:TX:a:t=P:problem=brak kreski taktowej	!	!	!	!	!	!LO:TX:a:t=P:problem=brak kreski taktowej	!	!	!
2.AA/	.	2.AA/	-n(us)	2.c\	-nus	2.a\	-n(us)}	2.a\	-nus	2.a\	-nus
=88	=88	=88-z	=88	=88-z	=88	=88-z	=88	=88-z	=88	=88	=88
!	!	!	!	!LO:TX:a:t=P:problem=brak kreski taktowej	!	!	!	!	!	!	!
!LO:TX:b:t=Cant	!	!LO:N:vis=00	!	!LO:N:vis=00	!	!LO:N:vis=00	!	!	!	!	!
4A\	.	0.r	.	0.r	.	0.r	.	4r	.	4a\	et
4F#X\	6	.	.	.	.	.	.	4r	.	4a\	dic
!LO:TX:a:t=P:problem=brak kreski taktowej	!	!	!	!	!	!	!	!LO:SIC:s=4f#:v	!	!	!
4D\	#	.	.	.	.	.	.	4f/	ne	4a\	ne
=89-z	=89	=89	=89	=89	=89	=89	=89	=89	=89	=89	=89
2.G\	.	.	.	.	.	.	.	4.g\	ti-	4.b\	ti-
.	.	.	.	.	.	.	.	8a\	-me-	8cc\	-me-
.	.	.	.	.	.	.	.	4b\	-as	4dd\	-as
=90	=90	=90	=90	=90	=90	=90	=90	=90	=90	=90	=90
4D/	-	.	.	.	.	.	.	4dd\	ne	4ff\	ne
2AA/	#	.	.	.	.	.	.	4.cc#X\	ti-	4.ee\	ti-
!	!	!	!	!	!	!	!	!LO:TX:a:t=P:problem=brak kreski taktowej	!	!LO:TX:a:t=P:problem=brak kreski taktowej	!
.	.	.	.	.	.	.	.	8cc#\	-me-	8ee\	-me-
=91	=91	=91	=91	=91	=91	=91	=91	=91-z	=91	=91-z	=91
2D/	.	.	.	.	.	.	.	2.dd\	-as	2dd\	-as
!LO:TX:a:t=P:problem=brak kreski taktowej	!	!	!	!	!	!	!	!	!	!	!
4GG/	.	.	.	.	.	.	.	.	.	4dd\	ne
=92-z	=92	=92	=92	=92	=92	=92	=92	=92	=92	=92	=92
!	!	!LO:N:vis=00	!	!LO:TX:a:t=P:problem=brak kreski taktowej	!	!	!	!	!	!	!
!	!	!	!	!LO:N:vis=00	!	!LO:N:vis=00	!	!	!	!	!
4.AA/	.	0.r	.	0.r	.	0.r	.	2.r	.	4.cc\	ti-
8BB/	.	.	.	.	.	.	.	.	.	8b\	-me-
4C/	-	.	.	.	.	.	.	.	.	8a\	-as
.	.	.	.	.	.	.	.	.	.	8ee\	ne
=93	=93	=93	=93	=93	=93	=93	=93	=93	=93	=93	=93
!LO:TX:a:t=P:problem=brak kreski taktowej	!	!	!	!	!	!	!	!	!	!	!
2.GG/	.	.	.	.	.	.	.	4.b\	ti-	4.dd\	ti-
.	.	.	.	.	.	.	.	8a\	-me-	8cc\	-me-
.	.	.	.	.	.	.	.	8g\	-as	8b\	-as
.	.	.	.	.	.	.	.	8b\	ne	8dd\	ne
=94-z	=94	=94	=94	=94	=94	=94	=94	=94	=94	=94	=94
!LO:TX:a:t=P:problem=brak kreski taktowej	!	!	!	!	!	!	!	!	!	!	!
2.AA/	.	.	.	.	.	.	.	4.a\	ti-	4.cc\	ti-
.	.	.	.	.	.	.	.	8g/	-me-	8b\	-me-
!	!	!	!	!	!	!	!	!LO:SIC:s=8f#:v	!	!	!
.	.	.	.	.	.	.	.	8f/	-as	8a\	-as
!	!	!	!	!	!	!	!	!LO:TX:a:t=P:problem=brak kreski taktowej	!	!	!
.	.	.	.	.	.	.	.	8a\	ne	(16b\LL	.
.	.	.	.	.	.	.	.	.	.	16cc\JJ)	.
=95-z	=95	=95	=95	=95	=95	=95	=95	=95-z	=95	=95	=95
2.DD/	#	.	.	.	.	.	.	2f#X/	ti-	(4.a\	ti-
.	.	.	.	.	.	.	.	.	.	8g\)	.
.	.	.	.	.	.	.	.	4f#/	-me-	8a\	-me-
.	.	.	.	.	.	.	.	.	.	8b\	.
!	!	!LO:LB:g=original	!	!	!	!LO:TX:a:t=P:problem=brak kreski taktowej	!	!	!	!LO:LB:g=original	!
=96	=96	=96	=96	=96-z	=96	=96-z	=96	=96	=96	=96	=96
2GG/	.	4r	.	4r	.	4r	.	2g/	-as	2g/	-as
.	.	4r	.	4r	.	4r	.	.	.	.	.
!LO:TX:b:t=Tutti	!	!	!	!	!	!	!	!	!	!	!
!LO:TX:a:t=P:problem=brak kreski taktowej	!	!	!	!	!	!	!	!	!	!LO:TX:b:t=tutti	!
4G\	.	4G\	.	4B\	ne	4g\	ne	4b\	ne	4dd\	ne
=97-z	=97	=97	=97	=97	=97	=97	=97	=97	=97	=97	=97
4.F#X\	6	4.F#X\	.	4.d\	ti-	4.a\	ti-	4.b\	{ti-	4.dd\	ti-
!	!	!	!	!	!	!LO:TX:a:t=P:problem=krzyżyk nad nutą	!	!	!	!	!
8F#\	.	8F#\	.	8c\	-me-	8f#X\	-me-	8b\	-me-	8dd\	-me-
4G\	.	8G\	.	8B\	-as	8g\	-as	8b\	-as}	8dd\	-as
!	!	!	!	!LO:TX:a:t=P:problem=brak kreski taktowej	!	!	!	!	!	!	!
.	.	8G\	.	8B\	{ne	8d\	{ne	8b\	{ne	8dd\	{ne
!LO:LB:g=original	!	!	!	!	!	!	!	!LO:LB:g=original	!	!	!
=98	=98	=98	=98	=98-z	=98	=98	=98	=98	=98	=98	=98
!	!	!LO:SIC:s=4.F#:v	!	!	!	!	!	!	!	!	!
4.F#X\	.	4.F\	.	4.F#X/	ti-	4.a\	ti-	4.b\	ti-	4.dd\	ti-
!	!	!LO:SIC:s=8F#:v	!	!	!	!LO:TX:a:t=P:problem=krzyżyk nad nutą	!	!	!	!	!
8D\	#	8F\	.	8F#/	-me-	8f#X\	-me-	8b\	-me-	8dd\	-me-
!LO:TX:a:t=P:problem=brak kreski taktowej	!	!	!	!	!	!	!	!	!	!	!
4G\	.	4G\	.	8B\	-as}	8g\	-as}	4b\	-as}	4dd\	-as}
.	.	.	.	8B\	.	8d\	.	.	.	.	.
=99-z	=99	=99	=99	=99	=99	=99	=99	=99	=99	=99	=99
4BB/	6	4BB/	.	4B\	{ne	4g\	{ne	8a\L	ne	8cc\L	{ne
.	.	.	.	.	.	.	.	8g\J	.	8b\J	.
4C/	6	4C/	.	4.c\	ti-	4.g\	ti-	4.f#X/	ti-	4.a\	ti-
!LO:TX:a:t=P:problem=brak kreski taktowej	!	!	!	!	!	!	!	!	!	!	!
4D/	#	8.D/	.	.	.	.	.	.	.	.	.
!	!	!	!	!LO:TX:a:t=P:problem=brak kreski taktowej	!	!LO:TX:a:t=P:problem=krzyżyk nad nutą	!	!	!	!	!
.	.	.	.	8c\	-me-	8f#X\	-me-	8f#/	-me-	8a\	-me-
.	.	16D/	.	.	.	.	.	.	.	.	.
=100-z	=100	=100	=100	=100-z	=100	=100	=100	=100	=100	=100	=100
4GG/	.	4GG/	.	4B\	-as}	4g\	-as}	4g/	-as	4g/	-as}
4r	.	4r	.	4r	.	4r	.	4r	.	4r	.
!LO:TX:a:t=P:problem=kreska taktowa pojedyncza	!	!	!	!	!	!	!	!LO:TX:a:t=P:problem=kreska taktowa pojedyncza	!	!LO:TX:a:t=P:problem=kreska taktowa pojedyncza	!
4r	.	4r	.	4r	.	4r	.	4r	.	4r	.
=101|	=101||	=101|	=101||	=101||	=101||	=101||	=101||	=101|	=101||	=101|	=101||
*>G	*	*>G	*	*>G	*	*>G	*	*>G	*	*	*
*M3/4	*	*M3/4	*	*M3/4	*	*M3/4	*	*M3/4	*	*M3/4	*
!LO:TX:b:B:t=Audit et Suscipit	!	!LO:TX:a:B:t=Audit Tacet	!	!LO:TX:a:B:t=Audit Tacet	!	!	!	!LO:TX:a:B:t=Audit Tacet	!	!LO:TX:a:B:t=Audit Tacet	!
4C/	.	2.ryy	.	2.ryy	.	4g\	Au-	2.ryy	.	2.ryy	.
4D/	-	.	.	.	.	4f\	-dit	.	.	.	.
4AA/	.	.	.	.	.	4e\	et	.	.	.	.
=102	=102	=102	=102	=102	=102	=102	=102	=102	=102	=102	=102
!LO:N:acc=-	!	!	!	!	!	!	!	!	!	!	!
4.Fn\	Alto	2.ryy	.	2.ryy	.	4.a\	Sus-	2.ryy	.	2.ryy	.
8C/	.	.	.	.	.	8g\	-ci-	.	.	.	.
4D/	.	.	.	.	.	4f\	-pi	.	.	.	.
=103	=103	=103	=103	=103	=103	=103	=103	=103	=103	=103	=103
4C/	.	2.ryy	.	2.ryy	.	4g\	Pu-	2.ryy	.	2.ryy	.
4F\	.	.	.	.	.	(8c\L	-el-	.	.	.	.
.	.	.	.	.	.	8d\J)	.	.	.	.	.
!LO:TX:a:t=P:problem=brak kreski taktowej	!	!	!	!	!	!	!	!	!	!	!
4D\	4 2	.	.	.	.	8e\L	-la	.	.	.	.
.	.	.	.	.	.	16f\L	.	.	.	.	.
.	.	.	.	.	.	16e\JJ	.	.	.	.	.
!	!	!	!	!	!	!LO:LB:g=original	!	!	!	!	!
=104-z	=104	=104	=104	=104	=104	=104	=104	=104	=104	=104	=104
2G\	3	2.ryy	.	2.ryy	.	4.d\	Nun-	2.ryy	.	2.ryy	.
.	.	.	.	.	.	8d\	-ti-	.	.	.	.
4C/	.	.	.	.	.	4c/	-um	.	.	.	.
=105	=105	=105	=105	=105	=105	=105	=105	=105	=105	=105	=105
4G\	.	2.ryy	.	2.ryy	.	4d\	cre-	2.ryy	.	2.ryy	.
8F#X\L	.	.	.	.	.	4d\	-dit	.	.	.	.
8D\J	.	.	.	.	.	.	.	.	.	.	.
!	!	!	!	!	!	!LO:TX:a:t=P:problem=brak kreski taktowej	!	!	!	!	!
4G\	.	.	.	.	.	4d\	et	.	.	.	.
!LO:LB:g=original	!	!	!	!	!	!	!	!	!	!	!
=106	=106	=106	=106	=106	=106	=106-z	=106	=106	=106	=106	=106
2.C/	.	2.ryy	.	2.ryy	.	4.e\	con-	2.ryy	.	2.ryy	.
.	.	.	.	.	.	8d\	-ci-	.	.	.	.
.	.	.	.	.	.	4c/	-pit	.	.	.	.
=107	=107	=107	=107	=107	=107	=107	=107	=107	=107	=107	=107
4A\	.	2.ryy	.	2.ryy	.	4e\	cre-	2.ryy	.	2.ryy	.
8G#X\L	6	.	.	.	.	8e\L	-dit	.	.	.	.
8E\J	#	.	.	.	.	8a\	.	.	.	.	.
!LO:TX:a:t=P:problem=brak kreski taktowej	!	!	!	!	!	!LO:TX:a:t=P:problem=niejednoznaczny zapis łuku	!	!	!	!	!
4A\	.	.	.	.	.	(8g\	et	.	.	.	.
!	!	!	!	!	!	!LO:TX:a:t=P:problem=brak kreski taktowej	!	!	!	!	!
.	.	.	.	.	.	8a\J)	.	.	.	.	.
=108-z	=108	=108	=108	=108	=108	=108-z	=108	=108	=108	=108	=108
2.D/	-	2.ryy	.	2.ryy	.	4.f\	con-	2.ryy	.	2.ryy	.
.	.	.	.	.	.	8e\	-ci-	.	.	.	.
.	.	.	.	.	.	4d\	-pit	.	.	.	.
=109	=109	=109	=109	=109	=109	=109	=109	=109	=109	=109	=109
4G\	-	2.ryy	.	2.ryy	.	4g\	et	2.ryy	.	2.ryy	.
8F#X\L	.	.	.	.	.	4a\	pa-	.	.	.	.
8D\J	#	.	.	.	.	.	.	.	.	.	.
!LO:TX:a:t=P:problem=brak kreski taktowej	!	!	!	!	!	!LO:TX:a:t=P:problem=brak kreski taktowej	!	!	!	!	!
4G\	.	.	.	.	.	4b\	-rit	.	.	.	.
=110-z	=110	=110	=110	=110	=110	=110-z	=110	=110	=110	=110	=110
2D/	#	2.ryy	.	2.ryy	.	4.a\	fi-	2.ryy	.	2.ryy	.
.	.	.	.	.	.	8a\	-li-	.	.	.	.
!	!	!	!	!	!	!LO:TX:a:t=P:problem=tekst zamazany	!	!	!	!	!
4GG/	.	.	.	.	.	4g\	-um	.	.	.	.
=111	=111	=111	=111	=111	=111	=111	=111	=111	=111	=111	=111
8C/L	.	2.ryy	.	2.ryy	.	4g\	Sed	2.ryy	.	2.ryy	.
8BB/	6	.	.	.	.	.	.	.	.	.	.
8C/	.	.	.	.	.	4f\	ad-	.	.	.	.
8D/	.	.	.	.	.	.	.	.	.	.	.
!	!	!	!	!	!	!LO:TX:a:t=P:problem=brak kreski taktowej	!	!	!	!	!
8E/	.	.	.	.	.	4e\	-mi-	.	.	.	.
8C/J	.	.	.	.	.	.	.	.	.	.	.
=112	=112	=112	=112	=112	=112	=112-z	=112	=112	=112	=112	=112
4.F\	.	2.ryy	.	2.ryy	.	4.a\	-ra-	2.ryy	.	2.ryy	.
8C/	.	.	.	.	.	8g\	-bi-	.	.	.	.
!LO:TX:a:t=P:problem=brak kreski taktowej	!	!	!	!	!	!	!	!	!	!	!
4D/	.	.	.	.	.	4f\	-lem	.	.	.	.
=113-z	=113	=113	=113	=113	=113	=113	=113	=113	=113	=113	=113
4G\	.	2.ryy	.	2.ryy	.	4d\	{et	2.ryy	.	2.ryy	.
4E\	.	.	.	.	.	4e\	pa-	.	.	.	.
4D\	.	.	.	.	.	4f\	-rit	.	.	.	.
=114	=114	=114	=114	=114	=114	=114	=114	=114	=114	=114	=114
4.C/	.	2.ryy	.	2.ryy	.	4.g\	fi-	2.ryy	.	2.ryy	.
8D\	.	.	.	.	.	8f\	-li-	.	.	.	.
!LO:TX:a:t=P:problem=brak kreski taktowej	!	!	!	!	!	!	!	!	!	!	!
4E\	.	.	.	.	.	4e\	-um	.	.	.	.
=115-z	=115	=115	=115	=115	=115	=115	=115	=115	=115	=115	=115
4F\	.	2.ryy	.	2.ryy	.	4c\	Sed	2.ryy	.	2.ryy	.
4D\	.	.	.	.	.	4d\	ad-	.	.	.	.
4C/	.	.	.	.	.	4e\	-mi-	.	.	.	.
!LO:LB:g=original	!	!	!	!	!	!LO:LB:g=original	!	!	!	!	!
=116	=116	=116	=116	=116	=116	=116	=116	=116	=116	=116	=116
4GG/	.	2.ryy	.	2.ryy	.	4d\	-ra-	2.ryy	.	2.ryy	.
4BB/	.	.	.	.	.	8e\	-bi-	.	.	.	.
.	.	.	.	.	.	8f\	.	.	.	.	.
4C/	.	.	.	.	.	4g\	-lem}	.	.	.	.
=117	=117	=117	=117	=117	=117	=117	=117	=117	=117	=117	=117
!LO:TX:a:t=P:problem=brak kreski taktowej	!	!	!	!	!	!	!	!	!	!	!
2.D/	#	2.ryy	.	2.ryy	.	8g\	ad-	2.ryy	.	2.ryy	.
!	!	!	!	!	!	!LO:SIC:s=16f#	!	!	!	!	!
.	.	.	.	.	.	(16f\LL	-mi-	.	.	.	.
.	.	.	.	.	.	16e\JJ)	.	.	.	.	.
!	!	!	!	!	!	!LO:TX:a:t=P:problem=krzyżyk nad nutą	!	!	!	!	!
.	.	.	.	.	.	4.f#X\	-ra-	.	.	.	.
.	.	.	.	.	.	8f#\	-bi-	.	.	.	.
=118-z	=118	=118	=118	=118	=118	=118	=118	=118	=118	=118	=118
*	*	*	*	*	*	*2\right	*	*	*	*	*
2.GG/	.	2.ryy	.	2.ryy	.	2.g\	-lem	2.ryy	.	2.ryy	.
*clefC4	*	*	*	*	*	*	*	*	*	*	*
!	!	!	!	!LO:LB:g=original	!	!	!	!	!	!	!
=119||	=119||	=119||	=119||	=119||	=119||	=119||	=119||	=119||	=119||	=119||	=119||
*>H	*	*>H	*	*>H	*	*>H	*	*>H	*	*>H	*
*M3/4	*	*M3/4	*	*M3/4	*	*M3/4	*	*M3/4	*	*M3/4	*
!LO:TX:b:B:t=Qui nobis tribuat	!	!LO:TX:a:t=P:problem=brak kreski taktowej	!	!	!	!	!	!	!	!	!
!LO:TX:a:t=P:problem=zmiana klucza na C4	!	!LO:N:vis=00	!	!	!	!	!	!	!	!LO:TX:b:t=Solo	!
4G/	.	0.r	.	4G/	Qui	4g\	Qui	4b\	Qui	4dd\	Qui
!	!	!	!	!	!	!LO:TX:a:t=P:problem=krzyżyk nad nutą	!	!	!	!	!
8F#X/L	6	.	.	4F#X/	no-	4f#X\	no-	4b\	no-	4dd\	No-
8D/J	#	.	.	.	.	.	.	.	.	.	.
!	!	!	!	!	!	!	!	!LO:TX:a:t=P:problem=brak kreski taktowej	!	!	!
4G/	.	.	.	4G/	-bis	4d\	-bis	4g\	-bis	4b\	-bis
=120	=120	=120	=120	=120	=120	=120	=120	=120-z	=120	=120	=120
!	!	!	!	!LO:TX:a:t=repete	!	!	!	!	!	!	!
8C/L	.	.	.	8C/L	tri-	4.e\	tri-	4.cc\	tri-	4.ee\	tri-
!LO:TX:b:t=a	!	!	!	!	!	!	!	!	!	!	!
8D/	.	.	.	(8D/	.	.	.	.	.	.	.
!LO:TX:b:t=3.	!	!	!	!	!	!	!	!	!	!	!
8E/	.	.	.	8E/J)	.	.	.	.	.	.	.
8F/J	.	.	.	8F/	-bu-	8f\	-bu-	8cc\	-bu-	8ee\	-bu-
!	!	!	!	!	!	!	!	!LO:TX:a:t=P:problem=brak kreski taktowej	!	!LO:TX:a:t=P:problem=brak kreski taktowej	!
4G/	.	.	.	4G/	-at	4g\	-at	4b\	-at	4dd\	-at
=121	=121	=121	=121	=121	=121	=121	=121	=121-z	=121	=121-z	=121
4G/	.	.	.	4G/	pec-	4d\	pec-	4b\	pec-	4dd\	pec-
4c\	.	.	.	4c\	-ca-	(8e\L	-ca-	8cc\L	-ca-	(8ee\L	-ca-
.	.	.	.	.	.	8d\J)	.	8b\J	.	8dd\J)	.
!LO:TX:a:t=P:problem=brak kreski taktowej	!	!	!	!LO:TX:a:t=P:problem=brak kreski taktowej	!	!	!	!	!	!	!
4A\	9 7	.	.	4A\	-ti	16e\LL	-ti	8a\L	-ti	(8cc\L	-ti
.	.	.	.	.	.	16f\	.	.	.	.	.
!	!	!	!	!	!	!	!	!LO:TX:a:t=P:problem=brak kreski taktowej	!	!	!
.	.	.	.	.	.	16g\	.	8g\J	.	8b\J)	.
.	.	.	.	.	.	16a\JJ	.	.	.	.	.
=122-z	=122	=122	=122	=122-z	=122	=122	=122	=122-z	=122	=122	=122
!	!	!	!	!	!	!LO:TX:a:t=P:problem=krzyżyk nad nutą	!	!	!	!	!
4.d\	#	.	.	4.d\	Ve-	4.f#X\	Ve-	4.f#X/	ve-	4.a\	Ve-
8d\	.	.	.	8d\	-ni-	8f#\	-ni-	8f#/	-ni-	8a\	-ni-
!	!	!	!	!	!	!LO:TX:a:t=P:problem=znak końca repetycji	!	!	!	!	!
4G/	.	.	.	4G/	-a(m).	4g\	-am	4g/	-am	4g/	-am
*clefF4	*	*	*	*	*	*	*	*	*	*	*
!LO:LB:g=original	!	!	!	!	!	!	!	!	!	!	!
=123	=123	=123-z	=123	=123	=123	=123	=123	=123	=123	=123	=123
!LO:TX:b:t=Tutti	!	!	!	!	!	!	!	!	!	!	!
!LO:TX:a:t=P:problem=zmiana klucza na F4	!	!	!	!LO:TX:a:t=P:problem=powtórka tt. 119-122 adnotacja "repete"	!	!	!	!	!	!	!
4G\	.	4G\	Qui	4G/yy	Qui	4g\yy	Qui	4b\	qui	4dd\	{Qui
!	!	!	!	!	!	!LO:TX:a:t=P:problem=krzyżyk nad nutą	!	!	!	!	!
4F#X\	6	4F#X\	no-	4F#X/yy	no-	4f#X\yy	no-	4d/	no-	4g\	No-
!LO:TX:a:t=P:problem=brak kreski taktowej	!	!	!	!	!	!	!	!	!	!LO:TX:a:t=P:problem=brak kreski taktowej	!
4G\	.	4G\	-bis	4G/yy	-bis	4d\yy	-bis	4f#X/	-bis	4a\	-bis
!	!	!	!	!	!	!	!	!LO:LB:g=original	!	!	!
=124-z	=124	=124	=124	=124	=124	=124	=124	=124	=124	=124-z	=124
!	!	!	!	!LO:TX:a:t=repete	!	!	!	!	!	!	!
8C\L	.	(8C/L	tri-	8C/Lyy	tri-	4.e\yy	tri-	4.g/	tri-	4.b\	tri-
8D\	.	8D/J)	.	(8D/yy	.	.	.	.	.	.	.
8E\	.	8E\	-bu-	8E/J)yy	.	.	.	.	.	.	.
!LO:TX:a:t=P:problem=krzyżyk zgodnie z podziałem taktów	!	!	!	!	!	!	!	!	!	!	!
8F#\J	.	8F\	-at	8F/yy	-bu-	8f\yy	-bu-	8f/	-bu-	8a\	-bu-
!	!	!LO:TX:a:t=P:problem=brak kreski taktowej	!	!	!	!	!	!	!	!	!
4G\	.	4G\	.	4G/yy	-at	4g\yy	-at	4g/	-at	4g/	-at
=125	=125	=125-z	=125	=125	=125	=125	=125	=125	=125	=125	=125
4GG/	.	4GG/	pec-	4G/yy	pec-	4d\yy	pec-	4g/	pec-	4b\	pec-
4C/	.	4C/	-ca-	4c\yy	-ca-	(8e\Lyy	-ca-	4e/	-ca-	8g\L	-ca-
.	.	.	.	.	.	8d\J)yyy	.	.	.	16a\L	.
.	.	.	.	.	.	.	.	.	.	16b\JJ	.
!LO:TX:a:t=P:problem=brak kreski taktowej	!	!	!	!LO:TX:a:t=P:problem=brak kreski taktowej	!	!	!	!	!	!	!
4AA/	9 7	4AA/	-ti	4A\yy	-ti	16e\LLyy	-ti	4g/	-ti	8cc\L	-ti
.	.	.	.	.	.	16f\yy	.	.	.	.	.
.	.	.	.	.	.	16g\yy	.	.	.	8b\J	.
.	.	.	.	.	.	16a\JJyy	.	.	.	.	.
!	!	!LO:LB:g=original	!	!	!	!	!	!	!	!LO:LB:g=original	!
=126-z	=126	=126	=126	=126-z	=126	=126	=126	=126	=126	=126	=126
!	!	!	!	!	!	!LO:TX:a:t=P:problem=krzyżyk nad nutą	!	!	!	!	!
4.D/	#	4.D/	Ve-	4.d\yy	Ve-	4.f#X\yy	Ve-	4.f#X/	ve-	4.a\	Ve-
8D/	.	8D/	-ni-	8d\yy	-ni-	8f#\yy	-ni-	8f#/	-ni-	8a\	-ni-
!	!	!LO:TX:a:t=P:problem=brak kreski taktowej	!	!	!	!	!	!	!	!	!
4GG/	.	4GG/	-am	4G/yy	-a(m).	4g\yy	-am	4g/	-am	4g/	-am}
*clefC4	*	*	*	*	*	*	*	*	*	*	*
=127	=127	=127-z	=127	=127	=127	=127	=127	=127	=127	=127	=127
!	!	!	!	!	!	!LO:TX:b:t=repete.	!	!	!	!LO:TX:b:t=repete.	!
!LO:TX:a:t=P:problem=zmiana klucza na C4	!	!LO:N:vis=00	!	!	!	!	!	!	!	!	!
4G/	#	0.r	.	4G/	re-	4d\	re-	4g/	re-	4g/	re-
!	!	!	!	!	!	!LO:TX:a:t=P:problem=krzyżyk nad nutą	!	!	!	!	!
4F#X/	6	.	.	4F#X/	-a-	4f#X\	-a-	4b\	-a-	4dd\	-a-
!	!	!	!	!LO:TX:a:t=repete	!	!	!	!	!	!	!
!	!	!	!	!LO:TX:a:t=P:problem=brak kreski taktowej	!	!	!	!	!	!	!
4D/	6 #	.	.	4D/	-tus	4f#\	-tus	4b\	-tus	4dd\	-tus
=128	=128	=128	=128	=128-z	=128	=128	=128	=128	=128	=128	=128
4.C/	.	.	.	4.c\	de-	4.g\	de-	4.cc\	de-	4.ee\	de-
8C/	.	.	.	8c\	-le-	8f\	-le-	8cc\	-le-	8ee\	-le-
!	!	!	!	!	!	!	!	!LO:TX:a:t=P:problem=brak kreski taktowej	!	!	!
4G/	.	.	.	4G/	-at	4g\	-at	4b\	-at	4dd\	-at
=129	=129	=129	=129	=129	=129	=129	=129	=129-z	=129	=129	=129
4G/	.	.	.	4G/	et	4d\	et	4b\	et	4dd\	et
!	!	!	!	!	!	!LO:TX:a:t=P:problem=krzyżyk nad nutą	!	!	!	!	!
4E/	.	.	.	4E/	do-	(8f#X\L	do-	4cc#X\	do-	4gg\	do-
.	.	.	.	.	.	8g\J)	.	.	.	.	.
!	!	!	!	!LO:TX:a:t=P:problem=brak kreski taktowej	!	!	!	!LO:TX:a:t=P:problem=brak kreski taktowej	!	!LO:TX:a:t=P:problem=brak kreski taktowej	!
4D/	#	.	.	4D/	-net	4a\	-net	4dd\	-net	4ff#X\	-net
!	!	!	!	!	!	!LO:LB:g=original	!	!	!	!	!
=130-z	=130	=130	=130	=130-z	=130	=130	=130	=130-z	=130	=130-z	=130
4.A/	#	.	.	4.A/	Pa-	4.a\	Pa-	4.cc#X\	Pa-	4.ee\	Pa-
8A/	.	.	.	8A/	-tri-	8e\	-tri-	8cc#\	-tri-	8ee\	-tri-
!	!	!	!	!	!	!LO:TX:a:t=P:problem=krzyżyk nad nutą	!	!	!	!	!
4D/	.	.	.	4D/	-am	4f#X\	-am	4dd\	-am	4dd\	-am
*clefF4	*	*	*	*	*	*	*	*	*	*	*
=131	=131	=131	=131	=131	=131	=131	=131	=131	=131	=131	=131
!LO:TX:a:t=P:problem=zmiana klucza na F4	!	!LO:N:vis=00	!	!	!	!	!	!	!	!	!
4GG/	.	0.r	.	4G/	in	4d\	re-	4b\	et	4dd\	{et
4AA/	.	.	.	4A/	ar-	4e\	-a-	4a\	do-	4cc\	do-
!	!	!	!	!	!	!LO:TX:a:t=P:problem=brak kreski taktowej	!	!	!	!LO:TX:a:t=P:problem=brak kreski taktowej	!
4BB/	.	.	.	(8B\L	-ce	4d\	-tus	4g\	-net	4b\	-net
!	!	!	!	!LO:TX:a:t=P:problem=brak kreski taktowej	!	!	!	!	!	!	!
.	.	.	.	8c\J)	.	.	.	.	.	.	.
!LO:LB:g=original	!	!	!	!	!	!	!	!	!	!	!
=132	=132	=132	=132	=132	=132	=132-z	=132	=132	=132	=132-z	=132
!	!	!	!	!	!	!LO:TX:a:t=P:problem=krzyżyk nad nutą	!	!	!	!	!
4.D/	.	.	.	4.d\	Si-	4.f#X\	de-	4.f#X/	Pa-	4.a\	Pa-
8C/	.	.	.	8B\	-de-	8g\	-le-	8g/	-tri-	8b\	-tri-
!LO:TX:a:t=P:problem=brak kreski taktowej	!	!	!	!	!	!	!	!	!	!	!
4BB/	.	.	.	4A/	-r(um)	4a\	-at	4a/	-am	4cc\	-am
!	!	!	!	!LO:LB:g=original	!	!	!	!	!	!	!
=133-z	=133	=133	=133	=133	=133	=133	=133	=133	=133	=133	=133
4GG/	.	.	.	4G/	et	4g\	et	4b\	et	4dd\	et
!	!	!	!	!	!	!	!	!LO:LB:g=original	!	!	!
4BB/	.	.	.	4B\	do-	4d\	do-	8e/L	{do-	8g\L	do-
!	!	!	!	!	!	!	!	!LO:SIC:s=8f#:v	!	!	!
.	.	.	.	.	.	.	.	8f/J	.	8a\J	.
!	!	!	!	!LO:TX:a:t=P:problem=brak kreski taktowej	!	!LO:TX:a:t=P:problem=brak kreski taktowej	!	!	!	!	!
4C/	6	.	.	4c\	-net	4a\	-net	8g/L	-net	8b\L	-net
!	!	!	!	!	!	!	!	!LO:TX:a:t=P:problem=brak kreski taktowej	!	!	!
.	.	.	.	.	.	.	.	8a/J	.	8cc\J	.
=134	=134	=134	=134	=134-z	=134	=134-z	=134	=134-z	=134	=134	=134
!	!	!	!	!	!	!LO:TX:a:t=P:problem=krzyżyk nad nutą	!	!	!	!	!
4.D/	#	.	.	4.d\	Pa-	4.f#X\	Pa-	4.f#X/	Pa-	4.a\	Pa-
8D/	.	.	.	8d\	-tri-	8f#\	-tri-	8f#/	-tri-	8a\	-tri-
!	!	!	!	!	!	!	!	!LO:TX:a:t=P:problem=brak kreski taktowej	!	!	!
4GG/	.	.	.	4G/	-a(m)	4g\	-a(m)	4g/	-am}	4g/	-am}
=135	=135	=135	=135	=135	=135	=135	=135	=135-z	=135	=135	=135
!	!	!LO:N:vis=0	!	!	!	!	!	!	!	!	!
4GG/	.	1.r	.	4G/	in	4g\	et	4b\	et	4dd\	et
8AA/L	.	.	.	(8A\L	ar-	(8e\L	do-	8cc\L	do-	(8ee\L	do-
8BB/J	.	.	.	8B\J)	.	8f\J)	.	8b\J	.	8dd\)	.
!LO:TX:a:t=P:problem=brak kreski taktowej	!	!	!	!	!	!	!	!	!	!	!
4C/	6	.	.	4c\	-ce	4g\	-net	8a\L	-net	(8cc\	-net
.	.	.	.	.	.	.	.	8g\J	.	8b\J)	.
=136-z	=136	=136	=136	=136	=136	=136	=136	=136	=136	=136	=136
!LO:TX:a:t=P:problem=brak kreski taktowej	!	!	!	!	!	!LO:TX:a:t=P:problem=krzyżyk nad nutą	!	!	!	!	!
2.D/	#	.	.	(4.d\	Sy-	4.f#X\	Pa-	2f#X/	Pa-	(4.a\	Pa-
.	.	.	.	8c\)	.	8f#\	-tri-	.	.	8g\)	.
.	.	.	.	8d\	-de-	4f#\	.	4f#/	-tri-	8a\	-tri-
.	.	.	.	8d\	.	.	.	.	.	8b\	.
=137-z	=137	=137	=137	=137	=137	=137	=137	=137	=137	=137	=137
!	!	!LO:TX:a:t=P:problem=brak kreski taktowej	!	!LO:TX:a:t=P:problem=znak końca repetycji	!	!	!	!LO:N:vis=2	!	!	!
2.GG/	.	2.r	.	2.B\	-rum.	2.g\	-am	2.g/	-am	2.g/	-am.
=138	=138	=138-z	=138	=138	=138	=138	=138	=138	=138	=138	=138
!LO:TX:b:t=Tutti	!	!	!	!LO:TX:a:t=P:problem=powtórzenie tt. 127-137 oznaczone znakami repetycji adnotacja "repete"	!	!LO:TX:a:t=P:problem=powtórzenie tt. 127-137 oznaczone znakami repetycji	!	!LO:TX:a:t=P:problem=powtórzenie tt. 127-137 oznaczone znakami repetycji	!	!LO:TX:a:t=P:problem=powtórzenie tt. 127-137 oznaczone znakami repetycji adnotacja "repete."	!
4G\	.	4G\	re-	4G/yy	re-	4d\yy	re-	4g/yy	re-	4g/yy	re-
!	!	!LO:TX:a:t=P:problem=krzyżyk nad nutą	!	!	!	!LO:TX:a:t=P:problem=krzyżyk nad nutą	!	!	!	!	!
4F#X\	6	4F#X\	-a-	4F#X/yy	-a-	4f#X\yy	-a-	4b\yy	-a-	4dd\yy	-a-
!LO:TX:a:t=P:problem=brak kreski taktowej	!	!	!	!LO:TX:a:t=P:problem=brak kreski taktowej	!	!	!	!	!	!	!
4D\	#	4D\	-tus	4D/yy	-tus	4f#\yy	-tus	4b\yy	-tus	4dd\yy	-tus
=139-z	=139	=139	=139	=139-z	=139	=139	=139	=139	=139	=139	=139
4.C/	.	4.C/	de-	4.c\yy	de-	4.g\yy	de-	4.cc\yy	de-	4.ee\yy	de-
8C/	.	8C/	-le-	8c\yy	-le-	8f\yy	-le-	8cc\yy	-le-	8ee\yy	-le-
!	!	!	!	!	!	!	!	!LO:TX:a:t=P:problem=brak kreski taktowej	!	!	!
4GG/	.	4GG/	-at	4G/yy	-at	4g\yy	-at	4b\yy	-at	4dd\yy	-at
=140	=140	=140	=140	=140	=140	=140	=140	=140-z	=140	=140	=140
4G\	.	(8G\L	et	4G/yy	et	4d\yy	et	4b\yy	et	4dd\yy	et
.	.	8F\J)	.	.	.	.	.	.	.	.	.
!	!	!	!	!	!	!LO:TX:a:t=P:problem=krzyżyk nad nutą	!	!	!	!	!
4E\	.	4E\	do-	4E/yy	do-	(8f#X\Lyy	do-	4cc#X\yy	do-	4gg\yy	do-
.	.	.	.	.	.	8g\J)yy	.	.	.	.	.
!LO:TX:a:t=P:problem=brak kreski taktowej	!	!	!	!LO:TX:a:t=P:problem=brak kreski taktowej	!	!	!	!LO:TX:a:t=P:problem=brak kreski taktowej	!	!LO:TX:a:t=P:problem=brak kreski taktowej	!
4D\	#	4D\	-net	4D/yy	-net	4a\yy	-net	4dd\yy	-net	4ff#X\yy	-net
!	!	!	!	!	!	!LO:LB:g=original	!	!	!	!	!
=141-z	=141	=141	=141	=141-z	=141	=141	=141	=141-z	=141	=141-z	=141
4.AA/	#	4.AA/	Pa-	4.A/yy	Pa-	4.a\yy	Pa-	4.cc#X\yy	Pa-	4.ee\yy	Pa-
8AA/	.	8AA/	-tri-	8A/yy	-tri-	8e\yy	-tri-	8cc#\yy	-tri-	8ee\yy	-tri-
!	!	!	!	!	!	!LO:TX:a:t=P:problem=krzyżyk nad nutą	!	!	!	!	!
4D/	.	4D/	-a(m)	4D/yy	-am	4f#X\yy	-am	4dd\yy	-am	4dd\yy	-am
!LO:LB:g=original	!	!	!	!	!	!	!	!	!	!	!
=142	=142	=142	=142	=142	=142	=142	=142	=142	=142	=142	=142
4GG/	.	4GG/	in	4G/yy	in	4d\yy	re-	4b\yy	et	4dd\yy	{et
4AA/	.	4AA/	ar-	4A/yy	ar-	4e\yy	-a-	4a\yy	do-	4cc\yy	do-
!LO:TX:a:t=P:problem=brak kreski taktowej	!	!	!	!	!	!LO:TX:a:t=P:problem=brak kreski taktowej	!	!	!	!LO:TX:a:t=P:problem=brak kreski taktowej	!
4BB/	.	(8BB/L	-ce	(8B\Lyy	-ce	4d\yy	-tus	4g\yy	-net	4b\yy	-net
.	.	8C/J)	.	8c\J)yy	.	.	.	.	.	.	.
=143-z	=143	=143	=143	=143	=143	=143-z	=143	=143	=143	=143-z	=143
!	!	!	!	!	!	!LO:TX:a:t=P:problem=krzyżyk nad nutą	!	!	!	!	!
4.D/	.	4.D/	Sy-	4.d\yy	Si-	4.f#X\yy	de-	4.f#X/yy	Pa-	4.a\yy	Pa-
8C/	.	8C/	-de-	8B\yy	-de-	8g\yy	-le-	8g/yy	-tri-	8b\yy	-tri-
4BB/	.	4BB/	-rum	4A/yy	-r(um)	4a\yy	-at	4a/yy	-am	4cc\yy	-am
!	!	!	!	!LO:LB:g=original	!	!	!	!	!	!	!
=144	=144	=144	=144	=144	=144	=144-z	=144	=144	=144	=144	=144
4GG/	.	4GG/	{et	4G/yy	et	4g\yy	et	4b\yy	et	4dd\yy	et
!	!	!	!	!	!	!	!	!LO:LB:g=original	!	!	!
4BB/	.	4BB/	do-	4B\yy	do-	4d\yy	do-	8e/Lyy	{do-	8g\Lyy	do-
!	!	!	!	!	!	!	!	!LO:SIC:s=8f#:v	!	!	!
.	.	.	.	.	.	.	.	8f/Jyy	.	8a\Jyy	.
!LO:TX:a:t=P:problem=brak kreski taktowej	!	!LO:TX:a:t=P:problem=brak kreski taktowej	!	!LO:TX:a:t=P:problem=brak kreski taktowej	!	!LO:TX:a:t=P:problem=brak kreski taktowej	!	!	!	!	!
4C/	6	4AA/	-net	4c\yy	-net	4a\yy	-net	8g/Lyy	-net	8b\Lyy	-net
!	!	!	!	!	!	!	!	!LO:TX:a:t=P:problem=brak kreski taktowej	!	!	!
.	.	.	.	.	.	.	.	8a/Jyy	.	8cc\Jyy	.
=145-z	=145	=145-z	=145	=145-z	=145	=145-z	=145	=145-z	=145	=145	=145
!	!	!	!	!	!	!LO:TX:a:t=P:problem=krzyżyk nad nutą	!	!	!	!	!
4.D/	#	4.D/	Pa-	4.d\yy	Pa-	4.f#X\yy	Pa-	4.f#X/yy	Pa-	4.a\yy	Pa-
8D/	.	8D/	-tri-	8d\yy	-tri-	8f#\yy	-tri-	8f#/yy	-tri-	8a\yy	-tri-
!	!	!	!	!	!	!	!	!LO:TX:a:t=P:problem=brak kreski taktowej	!	!	!
4GG/	.	4GG/	-a(m)	4G/yy	-a(m)	4g\yy	-a(m)	4g/yy	-am}	4g/yy	-am}
=146	=146	=146	=146	=146	=146	=146	=146	=146	=146	=146	=146
4GG/	.	4GG/	in	4G/yy	in	4g\yy	et	4b\yy	et	4dd\yy	et
8AA/L	.	8AA/L	ar-	(8A\Lyy	ar-	(8e\Lyy	do-	8cc\Lyy	do-	(8ee\Lyy	do-
8BB/J	.	8BB/J	.	8B\J)yy	.	8f\J)yy	.	8b\Jyy	.	8dd\)yy	.
4C/	.	4C/	-ce	4c\yy	-ce	4g\yy	-net	8a\Lyy	-net	(8cc\yy	-net
.	.	.	.	.	.	.	.	8g\Jyy	.	8b\J)yy	.
!	!	!LO:LB:g=original	!	!	!	!	!	!	!	!	!
=147	=147	=147	=147	=147	=147	=147	=147	=147	=147	=147	=147
!LO:TX:a:t=P:problem=brak kreski taktowej	!	!	!	!	!	!LO:TX:a:t=P:problem=krzyżyk nad nutą	!	!	!	!	!
2.D/	#	4.D/	Sy-	(4.d\yy	Sy-	4.f#X\yy	Pa-	2f#X/yy	Pa-	(4.a\yy	Pa-
.	.	8C/	.	8c\)yy	.	8f#\yy	-tri-	.	.	8g\)yy	.
.	.	8D/	-de-	8d\yy	-de-	4f#\yy	.	4f#/yy	-tri-	8a\yy	-tri-
.	.	8D/	.	8d\yy	.	.	.	.	.	8b\yy	.
=148	=148	=148	=148	=148	=148	=148	=148	=148	=148	=148	=148
!LO:TX:a:t=zapis "Anno D(omi)ni 1710 die 16 9bris P. Romanus Mon S. Crucis Superrior." pod pięciolinią	!	!	!	!	!	!	!	!LO:N:vis=2	!	!	!
2.GG/	.	2.GG/	-rum.}	2.B\yy	-rum.	2.g\yy	-am	2.g/yy	-am	2.g/yy	-am.
==	==	==	==	==	==	==	==	==	==	==	==
*-	*-	*-	*-	*-	*-	*-	*-	*-	*-	*-	*-
!!!system-decoration: [(g1)]g2
!!!ENC: Anna Matuszewska
!!!END: 2020-10-30
!!!ENC: Andrzej Kubiczek
!!!END: 2020-05-01
